!!!!SEGMENT: pl-wtm--r-138-n_noskowski-zygmunt--w-barwach-narodowych.krn
!!!cenid: 18xx:2294
!!!COM: Noskowski, Zygmunt
!!!COM-rismid: pe106604
!!!CDT: 1846/05/02-1909/07/23
!!!CNT: Polish
!!!OTL: W barwach narodowych
!!!PDT:
!!!AGN: Secular
!!!SMS-siglum: PL-Wtm
!!!SMS-shelfmark: R 138/N
!!!SMS-shelfwork: W
!!!SMS-variant:
!!!SMS-altvar:
!!!NIFC-rismid: 1001099513
!!!OMD: Poco maestoso.
!!!system-decoration: {(s1,s2,s3)}
**kern	**text	**dynam	**kern	**text	**dynam	**kern	**text	**dynam
*part3	*part3	*part3	*part2	*part2	*part2	*part1	*part1	*part1
*staff3	*staff3	*	*staff2	*staff2	*	*staff1	*staff1	*
*Ibass	*	*	*Iempty	*	*	*Itenor	*	*
*I"Basy	*	*	*	*	*	*I"Tenory	*	*
*I'B	*	*	*I'T 2	*	*	*I'T 1	*	*
*clefF4	*	*	*clefG2v2	*	*	*clefG2v2	*	*
*k[b-e-]	*	*	*k[b-e-]	*	*	*k[b-e-]	*	*
*B-:	*	*	*B-:	*	*	*B-:	*	*
*M3/4	*	*	*M3/4	*	*	*M3/4	*	*
=1	=1	=1	=1	=1	=1	=1	=1	=1
*^	*	*	*	*	*	*	*	*
*	*	*	*	*	*	*	*^	*	*
!!LO:TX:t=P:problem:all\right, middle or left:global
!	!	!	!	!LO:TX:t=P:problem:w źródle brak przenośnika oktawowego	!	!	!LO:TX:t=P:problem:w źródle brak przenośnika oktawowego	!	!	!
!	!	!	!LO:DY:b:rj	!	!	!	!	!	!	!LO:DY:b:rj
8.B-/	8.B-\	.	f	2.ryy	.	.	8.B-/	8.B-\	Hej,	f
16B-/	16B-\	.	.	.	.	.	16d/	16d\	Po-	.
8c/L	8A\L	.	.	.	.	.	4f/	4c\	-la-	.
8B-/J	8G\J	.	.	.	.	.	.	.	.	.
4A/	8F\L	.	.	.	.	.	4f/	4c\	-cy,	.
.	8E-\J	.	.	.	.	.	.	.	.	.
=2	=2	=2	=2	=2	=2	=2	=2	=2	=2	=2
8.B-/	8.D\	.	.	2.ryy	.	.	8.f/	8.B-\	hej,	.
16F/	16D\	.	.	.	.	.	16f/	16B-\	ro-	.
4F/	4BB-\	.	.	.	.	.	4d/	4B-\	-da-	.
4F/	4D\	.	.	.	.	.	4B-/	4B-\	-cy,	.
=3	=3	=3	=3	=3	=3	=3	=3	=3	=3	=3
8.F/	8.C\	.	.	2.ryy	.	.	8.e-/	8.A\	W tak	.
16F/	16AA\	.	.	.	.	.	16e-/	16c\	szczę-	.
4.F/	4.BB-\	.	.	.	.	.	4.e-/	4.c\	-śli-	.
8F/	8D\	.	.	.	.	.	8d/	8B-\	-wej	.
=4	=4	=4	=4	=4	=4	=4	=4	=4	=4	=4
4F/	2F\	do-	.	2.ryy	.	.	4d/	4B-\	do-	.
4F/	.	.	.	.	.	.	4c/	4A\	-bie.	.
!LO:TX:a:t=P:problem:w kodzie ułożenie głosów w spinie i subspinie 'Basy' pod tekst; problem z renderingiem przy prawidłowo ułóżonych głosach	!	!	!	!	!	!	!	!	!	!
(>8C\L	4rF	-bie	.	.	.	.	4rB	4ryy	.	.
8AA\J)	.	.	.	.	.	.	.	.	.	.
!!LO:LB:g=original
=5	=5	=5	=5	=5	=5	=5	=5	=5	=5	=5
*	*	*	*	*	*	*	*	*	*^	*
!	!	!	!	!	!	!	!LO:TX:a:t=P:w źródle jeden z tekstów nad pięciolinią:problem	!	!	!	!
4.E-/	2.FF\	Stań-	.	2.ryy	.	.	8.F/	4F\	Stań-	Stań-	.
.	.	.	.	.	.	.	16A/	.	-my	.	.
.	.	.	.	.	.	.	4c/	4A\	w ko-	-my	.
8F/	.	.	.	.	.	.	.	.	.	.	.
8G/	.	.	.	.	.	.	4e-/	8B-\	-ło	w ko-ło	.
8A/	.	.	.	.	.	.	.	8c\	.	.	.
*	*	*	*	*	*	*	*	*	*v	*v	*
=6	=6	=6	=6	=6	=6	=6	=6	=6	=6	=6
8.F/	2.BB-\	-my	.	2.ryy	.	.	8.d/	8.B-\	i	.
16E-/	.	.	.	.	.	.	16c/	16A\	we-	.
4D/	.	.	.	.	.	.	4B-/	4F\	-so-	.
4D/	.	.	.	.	.	.	4B-/	4F\	-ło	.
=7	=7	=7	=7	=7	=7	=7	=7	=7	=7	=7
*	*	*^	*	*	*	*	*	*	*	*
2C/	2FF\	Za-	Za-	.	2.ryy	.	.	8.A/	8.F\	Za-	.
.	.	.	.	.	.	.	.	16A/	16F\	-śpie-	.
.	.	.	.	.	.	.	.	4G/	4E-\	-waj-	.
4E-/	4FF\	-śpie-	-śpie-	.	.	.	.	4A/	4F\	-my	.
=8	=8	=8	=8	=8	=8	=8	=8	=8	=8	=8	=8
4D/	2BB-\	-waj-	-waj-	.	2.ryy	.	.	4B-/	4F\	so-	.
4F/	.	.	-my	.	.	.	.	4d/	4B-\	-bie.	.
!LO:TX:a:t=P:w źródle jeden z tekstów nad pięciolinią:problem	!	!	!	!	!	!	!	!	!	!	!
!LO:TX:a:t=P:problem:w kodzie ułożenie głosów w spinie i subspinie 'Basy' pod tekst; problem z renderingiem przy prawidłowo ułóżonych głosach	!	!	!	!	!	!	!	!	!	!	!
(>8C\L	4rF	-my	.	.	.	.	.	4rB	4ryy	.	.
8BB-\J)	.	.	.	.	.	.	.	.	.	.	.
*	*	*v	*v	*	*	*	*	*	*	*	*
=9	=9	=9	=9	=9	=9	=9	=9	=9	=9	=9
8.E-/	8.AA\	.	.	2.ryy	.	.	8.F/	4F\	Stań-	.
16E-/	16C\	.	.	.	.	.	16A/	.	-my	.
4F/	4E-\	.	.	.	.	.	4c/	4A\	w ko-	.
4F/	4C\	.	.	.	.	.	4e-/	4A\	-ło	.
!!LO:LB:g=original
=10	=10	=10	=10	=10	=10	=10	=10	=10	=10	=10
8.F/	8.BB-\	.	.	2.ryy	.	.	8.d/	8.B-\	i	.
16F#X/	16D\	.	.	.	.	.	16c/	16A\	we-	.
4G/	4GG\	.	.	.	.	.	4B-/	4G\	-so-	.
4En/	4C\	.	.	.	.	.	4B-/	4G\	-ło	.
=11	=11	=11	=11	=11	=11	=11	=11	=11	=11	=11
8.F/	2FF\	Za-	.	2.ryy	.	.	8.A/	8.F\	Za-	.
16D/	.	.	.	.	.	.	16A/	16F\	-śpie-	.
4E-X/	.	.	.	.	.	.	4G/	4E-\	-waj-	.
8D/L	4FF\	-śpie-	.	.	.	.	4A/	4F\	-my	.
8C/J	.	.	.	.	.	.	.	.	.	.
=12	=12	=12	=12	=12	=12	=12	=12	=12	=12	=12
4D/	4BB-\	-waj-	.	2.ryy	.	.	4B-/	4F\	so-	.
4D/	4BB-\	-my.	.	.	.	.	4B-/	4F\	-bie.	.
4r	4ryy	.	.	.	.	.	4rB	4ryy	.	.
=13	=13	=13	=13	=13	=13	=13	=13	=13	=13	=13
2.B-/	2.B-\	.	.	2.ryy	.	.	2.f/	2.d\	Hej,	.
=14	=14	=14	=14	=14	=14	=14	=14	=14	=14	=14
2.F/	2.F\	.	.	2.ryy	.	.	2.d/	2.B-\	hej.	.
=15	=15	=15	=15	=15	=15	=15	=15	=15	=15	=15
!	!	!	!	!	!	!	!	!	!	!LO:HP:b
[2.F/	[2.D\	.	>	2.ryy	.	.	[2.B-/	(2.B-\	hej!	>
=16	=16	=16	=16	=16	=16	=16	=16	=16	=16	=16
2F;>/]	2D;<\]	.	]	2.ryy	.	.	2B-;>/]	2A-X;<\)	.	]
4r	4ryy	.	.	.	.	.	4rB	4ryy	.	.
!!LO:LB:g=original
*	*	*	*	*	*	*	*v	*v	*	*
*v	*v	*	*	*	*	*	*	*	*
=17||	=17||	=17||	=17||	=17||	=17||	=17||	=17||	=17||
*^	*	*	*	*	*	*	*	*
*	*	*	*	*	*	*	*^	*	*
!!!OMD:Andantino cantabile.
*k[b-e-a-]	*k[b-e-a-]	*	*	*k[b-e-a-]	*	*	*k[b-e-a-]	*k[b-e-a-]	*	*
*M2/4	*M2/4	*	*	*M2/4	*	*	*M2/4	*M2/4	*	*
!	!	!	!LO:DY:b:rj	!	!	!	!	!	!	!LO:DY:b:rj
8.E-/	8.E-\	.	p	2ryy	.	.	8.B-/	8.G\	Od	p
16E-/	16E-\	.	.	.	.	.	16B-/	16G\	po-	.
8G/	8G\	.	.	.	.	.	8e-/	8B-\	-łu-	.
8G/	8E-\	.	.	.	.	.	8e-/	8B-\	-dnia	.
=18	=18	=18	=18	=18	=18	=18	=18	=18	=18	=18
!	!LO:TX:a:t=P:problem:problem z renderingiem przy prawidłowo ułóżonym tekście; "-i" na ostatnią 8-mkę	!	!	!	!	!	!	!	!	!
8A-/	(>8F\	sto-	.	2ryy	.	.	8d/	8B-\	sto-	.
4.A-/	4D\)	-i	.	.	.	.	4.f/	4.B-\	-i	.
.	8BB-\	.	.	.	.	.	.	.	.	.
=19	=19	=19	=19	=19	=19	=19	=19	=19	=19	=19
8.G/	8.E-\	.	.	2ryy	.	.	8.g/	8.B-\	Ma-	.
16G/	16E-\	.	.	.	.	.	16e-/	16B-\	-tka	.
8F/	8C\	.	.	.	.	.	8e-/	8An\	Ba-	.
8F/	8F\	.	.	.	.	.	8e-/	8A\	-bia	.
=20	=20	=20	=20	=20	=20	=20	=20	=20	=20	=20
8F/	4BB-\	.	.	2ryy	.	.	8d/	8B-\	gó-	.
4.B-/	.	.	.	.	.	.	4.f/	4.d\	-ra,	.
.	4AA-\	.	.	.	.	.	.	.	.	.
=21	=21	=21	=21	=21	=21	=21	=21	=21	=21	=21
8.B-/	8.GG\	.	.	2ryy	.	.	8.g/	8.e-\	U-	.
16E-/	16GG\	.	.	.	.	.	16e-/	16B-\	-ro-	.
8E-/	8C\	.	.	.	.	.	8e-/	8G\	-dzi-	.
8E-/	8C\	.	.	.	.	.	8G/	8G\	-ła	.
!!LO:LB:g=original
=22	=22	=22	=22	=22	=22	=22	=22	=22	=22	=22
4E-/	4AA-\	.	.	2ryy	.	.	4c/	4A-\	jej	.
4E-/	4FF\	.	.	.	.	.	4c/	4A-\	się	.
=23	=23	=23	=23	=23	=23	=23	=23	=23	=23	=23
8.D/	8.BB-\	.	.	2ryy	.	.	8.B-/	8.F\	Śli-	.
16D/	16BB-\	.	.	.	.	.	16B-/	16F\	-czna	.
8E-/	8C\	.	.	.	.	.	8An/	8F\	Wi-	.
8F/	8D\	.	.	.	.	.	8A-X/	8F\	-sła	.
=24	=24	=24	=24	=24	=24	=24	=24	=24	=24	=24
!	!LO:TX:a:t=P:problem:problem z renderingiem przy prawidłowo ułóżonym tekście; "-ra." na ostatnie dwie 8-mki	!	!	!	!	!	!	!	!	!
8E-/	4E-\	có-	.	2ryy	.	.	8G/	8G\	có-	.
4.G/	.	-ra.	.	.	.	.	4.B-/	4.B-\	-ra.	.
.	(>8BB-\L	.	.	.	.	.	.	.	.	.
.	8C\J)	.	.	.	.	.	.	.	.	.
=25	=25	=25	=25	=25	=25	=25	=25	=25	=25	=25
8.E-/	8.D-X\	.	.	2ryy	.	.	8.g/	8.B-\	U-	.
16E-/	16C\	.	.	.	.	.	16e-/	16A-\	-ro-	.
8E-/	8BB-\	.	.	.	.	.	8e-/	8G\	-dzi-	.
8G/	16G\LL	.	.	.	.	.	8B-/	8B-\	-ła	.
.	16F\JJ	.	.	.	.	.	.	.	.	.
=26	=26	=26	=26	=26	=26	=26	=26	=26	=26	=26
!	!	!	!	!	!	!	!	!	!	!LO:HP:b
(>8G/L	(<8En\L	.	<	2ryy	.	.	(>8c/L	(>8B-\L	jej	<
8c/J)	8F\J)	.	[[	.	.	.	8a-/J)	8A-\J)	.	[[
4F/	4AA-\	.	.	.	.	.	4a-/	4c\	się	.
!!LO:LB:g=original
=27	=27	=27	=27	=27	=27	=27	=27	=27	=27	=27
8.F/	4.BB-\	ślicz-	.	2ryy	.	.	8.d/	8.B-\	Śli-	.
16F/	.	.	.	.	.	.	16d/	16B-\	-czna	.
8A-/	.	.	.	.	.	.	8c/	8A-\	Wi-	.
!	!	!	!	!	!	!	!	!	!	!LO:HP:b
8A-/	8F\	-na	>	.	.	.	8d/	8B-\	-sła	>
=28	=28	=28	=28	=28	=28	=28	=28	=28	=28	=28
8A-/	8BB-\	.	]]	2ryy	.	.	8f/	8B-\	có-	]]
4G/	4E-\	.	.	.	.	.	4e-/	4B-\	-ra	.
8r	8ryy	.	.	.	.	.	8r	8ryy	.	.
*	*	*	*	*	*	*	*v	*v	*	*
=29	=29	=29	=29	=29	=29	=29	=29	=29	=29
!	!	!	!	!LO:TX:b:Bi:t=Ten.2°.:rj	!	!	!	!	!
!LO:TX:b:i:t=mormorando	!	!	!	!LO:TX:b:i:t=mormorando	!	!	!LO:TX:a:i:t=(Solo lub chór):rj	!	!
!	!	!	!LO:DY:b:rj	!	!	!LO:DY:b:rj	!	!	!LO:DY:a:rj
(>2G/	[<2E-\	.	p	[>2B-\	Hm	p	8.B-/	O-	mf
.	.	.	.	.	.	.	16B-/	-ba-	.
.	.	.	.	.	.	.	8e-/	-czy-	.
.	.	.	.	.	.	.	8e-/	-ła	.
=30	=30	=30	=30	=30	=30	=30	=30	=30	=30
2A-/	2E-\_<	.	.	2B-\_>	.	.	8d/	Kra-	.
.	.	.	.	.	.	.	4.f/	-ków	.
=31	=31	=31	=31	=31	=31	=31	=31	=31	=31
2G/	2E-\_<	.	.	2B-\_>	.	.	8.g/	I	.
.	.	.	.	.	.	.	16e-/	wnet	.
.	.	.	.	.	.	.	8e-/	po-	.
.	.	.	.	.	.	.	8e-/	-ko-	.
!!LO:PB:g=original
=32	=32	=32	=32	=32	=32	=32	=32	=32	=32
4F/	2E-\]	.	.	2B-\]	.	.	8d\	-cha-	.
.	.	.	.	.	.	.	4.f\	-ła	.
4A-/)	.	.	.	.	.	.	.	.	.
=33	=33	=33	=33	=33	=33	=33	=33	=33	=33
(>4G/	(<4E-\	.	.	(>2B-\	.	.	8.g\	I	.
.	.	.	.	.	.	.	16e-\	w do-	.
4E-/	4GG\	.	.	.	.	.	8e-\	-wód	.
.	.	.	.	.	.	.	8G/	mi-	.
=34	=34	=34	=34	=34	=34	=34	=34	=34	=34
2F/	2FF\	.	.	2A-/	.	.	4c\	-łoś-	.
.	.	.	.	.	.	.	4c\	-ci	.
=35	=35	=35	=35	=35	=35	=35	=35	=35	=35
2D/	2BB-\	.	.	2F/	.	.	8B-\	Wstę-	.
.	.	.	.	.	.	.	8B-\	-gą	.
.	.	.	.	.	.	.	8An/	o-	.
.	.	.	.	.	.	.	8A-X/	-pa-	.
=36	=36	=36	=36	=36	=36	=36	=36	=36	=36
4E-/	4C\	.	.	4E-/	.	.	8G/	-sa-	.
.	.	.	.	.	.	.	4.B-\	-ła,	.
4D/)	8BB-\L	.	.	4F/)	.	.	.	.	.
.	8AA-\J)	.	.	.	.	.	.	.	.
!!LO:LB:g=original
=37	=37	=37	=37	=37	=37	=37	=37	=37	=37
[>2E-/	(<2GG\	.	.	(>2B-\	.	.	8.g\	I	.
.	.	.	.	.	.	.	16e-\	w do-	.
.	.	.	.	.	.	.	8e-\	-wód	.
.	.	.	.	.	.	.	8B-\	mi-	.
=38	=38	=38	=38	=38	=38	=38	=38	=38	=38
(>2E-/]	4AA-\	.	.	[>2A-\)	.	.	(>8c\L	-łoś-	.
.	.	.	.	.	.	.	8a-\J)	.	.
.	4C\	.	.	.	.	.	4a-\	-ci	.
=39	=39	=39	=39	=39	=39	=39	=39	=39	=39
2F/	2BB-\	.	.	(>2A-\]	.	.	8.d\	Wstę-	.
.	.	.	.	.	.	.	16d\	-gą	.
.	.	.	.	.	.	.	8c\	o-	.
.	.	.	.	.	.	.	8d\	-pa-	.
=40	=40	=40	=40	=40	=40	=40	=40	=40	=40
8A-/	2E-\)	.	.	2B-\)	.	.	8f\	-sa-	.
4.G/)	.	.	.	.	.	.	4e-\	-ła.	.
.	.	.	.	.	.	.	8r	.	.
=41||	=41||	=41||	=41||	=41||	=41||	=41||	=41||	=41||	=41||
*	*	*	*	*	*	*	*^	*	*
!!!OMD: Piu lento
!	!	!	!LO:DY:b:rj	!	!	!	!	!	!	!LO:DY:b:rj
8.E-/	8.D-X\	.	p	2ryy	.	.	8.B-/	8.G\	Bo	p
16E-/	16D-\	.	.	.	.	.	16B-/	16G\	ta	.
8E-/	8C-X\	.	.	.	.	.	8e-/	8A-\	Pol-	.
8E-/	8C-\	.	.	.	.	.	8e-/	8A-\	-ska	.
!!LO:LB:g=original
=42	=42	=42	=42	=42	=42	=42	=42	=42	=42	=42
(>8F/	4BB-\	.	.	2ryy	.	.	(>8d/	(<8B-\	zie-	.
4B-/)	.	.	.	.	.	.	4f/)	4d\)	.	.
.	4AA-\	.	.	.	.	.	.	.	.	.
8B-/	.	.	.	.	.	.	8f/	8d\	-mia	.
=43	=43	=43	=43	=43	=43	=43	=43	=43	=43	=43
8.Bn/	8.GG\	.	.	2ryy	.	.	8.g/	8.d\	Ma	.
16G/	16AA-\	.	.	.	.	.	16e-/	16c\	ten	.
8F#X/	8D\	.	.	.	.	.	8e-/	8c\	u-	.
8F#/	8D\	.	.	.	.	.	8e-/	8c\	-rok	.
=44	=44	=44	=44	=44	=44	=44	=44	=44	=44	=44
4G/	4GG\	.	.	2ryy	.	.	8d/	4Bn\	w so-	.
.	.	.	.	.	.	.	4.f/	.	-bie,	.
4G/	(>8D\L	.	.	.	.	.	.	(>8B\L	.	.
.	8F\J)	.	.	.	.	.	.	8d\J)	.	.
=45	=45	=45	=45	=45	=45	=45	=45	=45	=45	=45
*	*	*	*^	*	*	*	*	*	*	*
8.G/	8.E-\	.	.	.	2ryy	.	.	8.g/	8.c\	Że	.
!	!	!	!	!LO:HP:b	!	!	!	!	!	!	!LO:HP:b
16G/	16C\	.	<	<	.	.	.	16e-/	16c\	kto	<
8G/	8C\	.	[[	[[	.	.	.	8e-/	8c\	ją	[[
8E-/	8C\	.	.	.	.	.	.	8G/	8G\	po-	.
*	*	*	*v	*v	*	*	*	*	*	*	*
=46	=46	=46	=46	=46	=46	=46	=46	=46	=46	=46
4En/	(>8BB-\L	.	.	2ryy	.	.	4c/	(>8G\L	-ko-	.
.	8GG\J)	.	.	.	.	.	.	8B-\J)	.	.
(<8F/L	(>8FF\L	.	.	.	.	.	4c/	(>8A-\L	-cha,	.
8E-X/J)	8AA-\J)	.	.	.	.	.	.	8F\J)	.	.
!!LO:LB:g=original
=47	=47	=47	=47	=47	=47	=47	=47	=47	=47	=47
8.D/	8.BB-\	.	.	2ryy	.	.	8.B-/	8.F\	Nie	.
16D/	16BB-\	.	.	.	.	.	16B-/	16F\	za-	.
!	!	!	!	!	!	!	!	!	!	!LO:HP:b
8C/	8FF\	.	>	.	.	.	8An/	8F\	-po-	>
8D/	8BB-\	.	.	.	.	.	8A-X/	8F\	-mni	.
=48	=48	=48	=48	=48	=48	=48	=48	=48	=48	=48
8E-/	(>8C\L	.	]	2ryy	.	.	8G/	(>8E-\L	w gro-	]
4.D/	8GG\J)	.	.	.	.	.	4.B-/	8G\J)	-bie.	.
.	(>8BB-\L	.	.	.	.	.	.	(>8F\L	.	.
.	8AA-\J)	.	.	.	.	.	.	8B-\J)	.	.
=49	=49	=49	=49	=49	=49	=49	=49	=49	=49	=49
8.E-/	8.GG\	.	.	2ryy	.	.	8.g/	8.B-\	Że	.
!	!	!	!	!	!	!	!	!	!	!LO:HP:b
16E-/	16GG\	.	<	.	.	.	16e-/	16Bn\	kto	<
8E-/	8AA-\	.	.	.	.	.	8e-/	8c\	ją	.
8D/	8BB-\	.	[	.	.	.	8B-X/	8B-\	po-	[
=50	=50	=50	=50	=50	=50	=50	=50	=50	=50	=50
!	!	!	!LO:DY:b:rj	!	!	!	!	!	!	!LO:DY:b:rj
(>8E-/L	(<8C\L	.	f	2ryy	.	.	4a-/	(>8A-\L	-ko-	f
8D/J)	8BB-\J)	.	.	.	.	.	.	8B-\J)	.	.
(>8E-/L	(<8C\L	.	.	.	.	.	4a-/	(>8A-\L	-cha,	.
8A-/J)	8E-\J)	.	.	.	.	.	.	8c\J)	.	.
=51	=51	=51	=51	=51	=51	=51	=51	=51	=51	=51
!	!	!	!	!	!	!	!	!	!	!LO:HP:b
8.A-/	8.F\	.	>	2ryy	.	.	8.d/	8.B-\	Nie	>
16F/	16F\	.	.	.	.	.	16d/	16A-\	za-	.
8F/	8E-\	.	.	.	.	.	8c/	8A-\	-po-	.
8F/	8D\	.	]	.	.	.	8d/	8A-\	-mni	]
!!LO:LB:g=original
=52	=52	=52	=52	=52	=52	=52	=52	=52	=52	=52
!	!LO:TX:a:t=P:problem:problem z renderingiem przy prawidłowo ułóżonym tekście; "-bie." na ostatnie dwie 8-mki	!	!	!	!	!	!	!	!	!
!	!	!	!LO:DY:b:rj	!	!	!	!	!	!	!LO:DY:b:rj
2A-/	4BB-\	w gro-bie.	p	2ryy	.	.	2f/	(>4d\	w gro-	p
.	(>8C\L	.	.	.	.	.	.	8c\L	.	.
.	8D\J)	.	.	.	.	.	.	8B-\J)	.	.
*	*	*	*	*	*	*	*v	*v	*	*
*v	*v	*	*	*	*	*	*	*	*
=53||	=53||	=53||	=53||	=53||	=53||	=53||	=53||	=53||
*^	*	*	*	*	*	*	*	*
*	*	*	*	*	*	*	*^	*	*
!!!OMD: Allegro alla breve.
*M2/2	*M2/2	*	*	*M2/2	*	*	*M2/2	*M2/2	*	*
!LO:TX:a:t=P:problem:w kodzie ułożenie głosów w spinie i subspinie 'Basy' pod tekst; problem z renderingiem przy prawidłowo ułóżonych głosach	!	!	!	!	!	!	!	!	!	!
!	!	!	!LO:DY:b:rj	!	!	!	!	!	!	!
4G/	4E-\	Bra-	f	1ryy	.	.	4e-/	4B-\	-bie	.
8E-\	4rB	-cia	.	.	.	.	4rB	4ryy	.	.
8E-\	.	do	.	.	.	.	.	.	.	.
4E-\	2rB	bi-	.	.	.	.	2rB	2ryy	.	.
4BB-\	.	-twy	.	.	.	.	.	.	.	.
*	*	*	*	*	*	*	*v	*v	*	*
=54	=54	=54	=54	=54	=54	=54	=54	=54	=54
4E-\	1rB	nad-	.	1ryy	.	.	1r	.	.
4BB-\	.	-szedł	.	.	.	.	.	.	.
2E-\	.	czas	.	.	.	.	.	.	.
=55	=55	=55	=55	=55	=55	=55	=55	=55	=55
!LO:TX:a:t=P:w źródle tekst nad pięciolinią:problem	!	!	!	!	!	!	!	!	!
!	!	!	!LO:DY:a:rj	!	!	!	!	!	!
4G/	4E-\	Trą-	f	1ryy	.	.	1r	.	.
8G/	8E-\	-ba	.	.	.	.	.	.	.
8G/	8E-\	do	.	.	.	.	.	.	.
4G/	4E-\	bo-	.	.	.	.	.	.	.
4E-/	4BB-\	-ju	.	.	.	.	.	.	.
!!LO:LB:g=original
=56	=56	=56	=56	=56	=56	=56	=56	=56	=56
*	*	*	*	*	*	*	*^	*	*
!LO:TX:a:t=P:w źródle tekst nad pięciolinią:problem	!	!	!	!	!	!	!	!	!	!
4G/	4E-\	wzy-	.	1ryy	.	.	2rB	1rg	.	.
4E-/	4BB-\	-wa	.	.	.	.	.	.	.	.
4G/	4E-\	nas,	.	.	.	.	4rB	.	.	.
8.r	8.ryy	.	.	.	.	.	8.rB	.	.	.
!	!	!	!	!	!	!	!	!	!	!LO:DY:b:rj
16G/	16E-\	.	.	.	.	.	16B-\	.	Do	f
=57	=57	=57	=57	=57	=57	=57	=57	=57	=57	=57
2G/	2E-\	.	.	1ryy	.	.	2B-\	2rf	bo-	.
4E-/	4E-\	.	.	.	.	.	4G\	4rf	-ju,	.
8.r	8.ryy	.	.	.	.	.	8.rB	8.ryy	.	.
!	!	!	!	!	!	!	!LO:TX:a:t=P:problem:w kodzie ułożenie głosów w spinie i subspinie 'Tenory 1' pod tekst; problem z renderingiem przy prawidłowo ułóżonych głosach	!	!	!
!	!	!	!	!	!	!	!	!	!	!LO:DY:a:rj
16G/	16E-\	.	.	.	.	.	16e-/	16B-\	do	f
=58	=58	=58	=58	=58	=58	=58	=58	=58	=58	=58
2A-/	2E-\	.	.	1ryy	.	.	2f/	2d-X\	bo-	.
4F/	4E-\	.	.	.	.	.	4d-X/	4A-\	-ju,	.
8.r	8.ryy	.	.	.	.	.	8.rB	8.ryy	.	.
16A-/	16E-\	.	.	.	.	.	16f/	16d-\	do	.
=59	=59	=59	=59	=59	=59	=59	=59	=59	=59	=59
[>1B-	[<1E-	.	.	1ryy	.	.	[>1g	[<1d-X	bo-	.
=60	=60	=60	=60	=60	=60	=60	=60	=60	=60	=60
1B-]	1E-]	.	.	1ryy	.	.	1g]	1d-]	.	.
=61	=61	=61	=61	=61	=61	=61	=61	=61	=61	=61
!	!	!	!	!	!	!	!	!	!	!LO:HP:b
[>1B-	[<1G	.	<	1ryy	.	.	[>1e-	[<1d-X	-ju!	<
=62	=62	=62	=62	=62	=62	=62	=62	=62	=62	=62
4B-/]	4G\]	.	[	1ryy	.	.	4e-/]	4d-\]	.	[
4r	4ryy	.	.	.	.	.	4rB	4ryy	.	.
2r;>	2ryy	.	.	.	.	.	2rB;>	2ryy	.	.
!!LO:PB:g=original
*	*	*	*	*	*	*	*v	*v	*	*
*v	*v	*	*	*	*	*	*	*	*
=63||	=63||	=63||	=63||	=63||	=63||	=63||	=63||	=63||
*^	*	*	*	*	*	*	*	*
*	*	*	*	*	*	*	*^	*	*
*	*	*	*^	*	*	*	*	*	*	*
!!!OMD: Moderato.
*k[b-e-a-d-]	*k[b-e-a-d-]	*	*	*	*k[b-e-a-d-]	*	*	*k[b-e-a-d-]	*k[b-e-a-d-]	*	*
*M4/4	*M4/4	*	*	*	*M4/4	*	*	*M4/4	*M4/4	*	*
*met(c)	*met(c)	*	*	*	*met(c)	*	*	*met(c)	*met(c)	*	*
!	!	!	!	!LO:DY:b:rj	!	!	!	!	!	!	!LO:DY:b:rj
!	!	!	!LO:DY:a:rj	!	!	!	!	!	!	!	!
4A-/	(<8A-\L	.	mf	mf	1ryy	.	.	1rg	4A-\	A	mf
.	8G\J)	.	.	.	.	.	.	.	.	.	.
4A-/	4F\	.	.	.	.	.	.	.	4A-\	kto	.
(>8G/L	(>8E-\L	.	.	.	.	.	.	.	4c\	chce	.
8B-/J)	8D-\J)	.	.	.	.	.	.	.	.	.	.
4A-/	4C\	.	.	.	.	.	.	.	4e-\	roz-	.
*	*	*	*v	*v	*	*	*	*	*	*	*
=64	=64	=64	=64	=64	=64	=64	=64	=64	=64	=64
4.G/	4.E-\	.	.	1ryy	.	.	1rg	4.B-\	-sko-	.
8E-/	8BB-\	.	.	.	.	.	.	8G\	-szy	.
4E-/	(<8E-\L	.	.	.	.	.	.	4E-\	u-	.
.	8D-\J)	.	.	.	.	.	.	.	.	.
4E-/	4C\	.	.	.	.	.	.	4E-\	-żyć,	.
=65	=65	=65	=65	=65	=65	=65	=65	=65	=65	=65
!	!	!	!	!	!	!	!	!	!	!LO:DY:a:rj
4F/	(<8D-\L	.	.	1ryy	.	.	4d-/	4A-\	A	mf
.	8C\J)	.	.	.	.	.	.	.	.	.
4F/	4BB-\	.	.	.	.	.	4d-/	4A-\	kto	.
4A-/	(<8AA-\L	.	.	.	.	.	4f/	4d-\	chce	.
.	8GG\J)	.	.	.	.	.	.	.	.	.
4A-/	4FF\	.	.	.	.	.	4a-/	4d-\	roz-	.
=66	=66	=66	=66	=66	=66	=66	=66	=66	=66	=66
(<8B-/L	4.GG\	.	.	1ryy	.	.	4.e-/	4.B-\	-ko-	.
8E-/J)	.	.	.	.	.	.	.	.	.	.
4E-/	.	.	.	.	.	.	.	.	.	.
!	!	!	!LO:HP:a	!	!	!	!	!	!	!LO:HP:a
.	8BB-\	.	<	.	.	.	8d-/	8G\	-szy	<
4E-/	(>8AA-\L	.	.	.	.	.	4c/	4A-\	u-	.
.	8BB-\J)	.	.	.	.	.	.	.	.	.
4E-/	4C\	.	[	.	.	.	4e-/	4A-\	-żyć,	[
!!LO:LB:g=original
=67	=67	=67	=67	=67	=67	=67	=67	=67	=67	=67
!	!	!	!LO:DY:b:rj	!	!	!	!	!	!	!LO:DY:b:rj
4F/	4D-\	.	f	1ryy	.	.	4B-/	4A-\	Niech	f
4F/	4Dn\	.	.	.	.	.	4B-/	4A-\	do	.
4E-/	4E-\	.	.	.	.	.	4e-/	4G\	woj-	.
4E-/	4GG\	.	.	.	.	.	8e-/L	4B-\	-ska	.
.	.	.	.	.	.	.	8d-/J	.	.	.
=68	=68	=68	=68	=68	=68	=68	=68	=68	=68	=68
4.E-/	4AA-\	.	.	1ryy	.	.	4.c/	4.A-\	i-	.
.	4GG\	.	.	.	.	.	.	.	.	.
8En/	.	.	.	.	.	.	8A-/	8A-\	-dzie	.
4F/	4FF\	.	.	.	.	.	4c/	4A-\	słu-	.
4F/	4FF\	.	.	.	.	.	4e-/	4An\	-żyć,	.
=69	=69	=69	=69	=69	=69	=69	=69	=69	=69	=69
4D-/	4BB-\	.	.	1ryy	.	.	4B-/	4F\	Niech	.
!LO:TX:a:t=P:problem:note position	!	!	!	!	!	!	!	!	!	!
4E-/	8E-\L	.	.	.	.	.	4B-/	4G\	do	.
.	8D-\J	.	.	.	.	.	.	.	.	.
4E-/	4C\	.	.	.	.	.	4e-/	4G\	woj-	.
4E-/	4BB-\	.	.	.	.	.	(<8e-/L	4G\	-ska	.
.	.	.	.	.	.	.	8d-/J)	.	.	.
=70	=70	=70	=70	=70	=70	=70	=70	=70	=70	=70
*	*	*	*	*	*	*	*	*	*^	*
!	!	!	!	!	!	!	!LO:TX:a:t=P:w źródle jeden z tekstów nad pięciolinią:problem	!	!	!	!
!	!	!	!	!	!	!	!LO:TX:a:t=P:problem:w kodzie ułożenie tekstów w głosie 'T 1' pod główny spin; problem z renderingiem przy prawidłowo ułóżonym tekście	!	!	!	!
4E-/	4AA-\	.	.	1ryy	.	.	4.c/	4A-\	i-	i-	.
8C/	8AA-\	.	.	.	.	.	.	8E-\	.	.	.
8r	8ryy	.	.	.	.	.	8B-/	8r	-dzie	-dzie	.
2r	2ryy	.	.	.	.	.	4A-/	2r	słu-	.	.
.	.	.	.	.	.	.	4A-/	.	-żyć	.	.
!!LO:LB:g=original
*	*	*	*	*	*	*	*	*	*v	*v	*
*	*	*	*	*	*	*	*v	*v	*	*
=71||	=71||	=71||	=71||	=71||	=71||	=71||	=71||	=71||	=71||
!!!OMD: Marcia maestoso.
!LO:TX:a:Bi:t=Basy:rj	!	!	!	!LO:TX:a:Bi:t=Ten.2°.:rj	!	!	!LO:TX:a:Bi:t=Ten.1°.:rj	!	!
!	!	!	!LO:DY:b:rj	!	!	!LO:DY:b:rj	!	!	!
8E-/	8AA-\	.	mp	8A-\	Tram	mp	2r	.	.
8r	8ryy	.	.	8r	.	.	.	.	.
8E-/	8AA-\	.	.	8A-\	tram	.	.	.	.
8r	8ryy	.	.	8r	.	.	.	.	.
8E-/	8AA-\	.	.	8A-\	tram	.	4r	.	.
8r	8ryy	.	.	8r	.	.	.	.	.
!	!	!	!	!	!	!	!	!	!LO:DY:a:rj
8E-/	8AA-\	.	.	8A-\	tram	.	8A-/	O	mf
8r	8ryy	.	.	8r	.	.	8c\	to	.
=72	=72	=72	=72	=72	=72	=72	=72	=72	=72
!	!	!	!	!	!	!	!LO:TX:a:i:t=(Solo albo chór):rj	!	!
8E-/	8AA-\	.	.	8c\	tram	.	4.e-\	dziś	.
8r	8ryy	.	.	8r	.	.	.	.	.
8E-/	8AA-\	.	.	8c\	tram	.	.	.	.
8r	8ryy	.	.	8r	.	.	8c\	dzień	.
8E-/	8AA-\	.	.	8c\	tram	.	4.a-\	krwi	.
8r	8ryy	.	.	8r	.	.	.	.	.
8E-/	8AA-\	.	.	8c\	tram	.	.	.	.
8r	8ryy	.	.	8r	.	.	8c\	i	.
=73	=73	=73	=73	=73	=73	=73	=73	=73	=73
8E-/	8AA-\	.	.	8B-\	tram	.	(>8.e-\L	chwa-	.
8r	8ryy	.	.	8r	.	.	.	.	.
.	.	.	.	.	.	.	16d-\Jk)	.	.
8G/	8E-\	.	.	8B-\	ta	.	4B-\	-ły,	.
16r	16ryy	.	.	16r	.	.	.	.	.
16G/	16D-\	.	.	16B-\	ta	.	.	.	.
8G/	8BB-\	.	.	8B-\	tam	.	4r	.	.
8r	8ryy	.	.	8r	.	.	.	.	.
8E-/	8GG\	.	.	8B-\	tam	.	8B-\	O-	.
8r	8ryy	.	.	8r	.	.	8d-\	-by	.
=74	=74	=74	=74	=74	=74	=74	=74	=74	=74
8E-/	8AA-\	.	.	8A-/	tram	.	4.c\	dniem	.
8r	8ryy	.	.	8r	.	.	.	.	.
8E-/	8C\	.	.	8A-/	tram	.	.	.	.
8r	8ryy	.	.	8r	.	.	8c\	wskrze-	.
8E-/	8E-\	.	.	8G/	tram	.	(>8B-\L	-sze-	.
8r	8ryy	.	.	8r	.	.	8e-\J)	.	.
8E-/	8E-\	.	.	8G/	tram	.	(>8d-\L	-nia	.
8r	8ryy	.	.	8r	.	.	8B-\J)	.	.
!!LO:LB:g=original
=75	=75	=75	=75	=75	=75	=75	=75	=75	=75
8E-/	8AA-\	.	.	8A-/	tram	.	2A-/	był,	.
8r	8ryy	.	.	8r	.	.	.	.	.
8E-/	8AA-\	.	.	8A-/	tam	.	.	.	.
16r	16ryy	.	.	16r	.	.	.	.	.
16E-/	16AA-\	.	.	16A-/	ta	.	.	.	.
8E-/	8AA-\	.	.	8A-/	tam	.	4r	.	.
8r	8ryy	.	.	8r	.	.	.	.	.
8E-/	8AA-\	.	.	8A-/	tam	.	8A-/	W tę-	.
8r	8ryy	.	.	8r	.	.	8c\	-czę	.
=76	=76	=76	=76	=76	=76	=76	=76	=76	=76
8E-/	8AA-\	.	.	8c\	tram	.	4.e-\	Fran-	.
8r	8ryy	.	.	8r	.	.	.	.	.
8E-/	8C\	.	.	8A-\	tram	.	.	.	.
8r	8ryy	.	.	8r	.	.	8c\	-ków	.
8A-/	8F\	.	.	8c\	tram	.	4.a-\	o-	.
8r	8ryy	.	.	8r	.	.	.	.	.
8A-/	8F\	.	.	8c\	tram	.	.	.	.
8r	8ryy	.	.	8r	.	.	8c\	-rzeł	.
=77	=77	=77	=77	=77	=77	=77	=77	=77	=77
8F/	8D-\	.	.	8B-\	tram	.	(>8.e-\L	bia-	.
8r	8ryy	.	.	8r	.	.	.	.	.
.	.	.	.	.	.	.	16d-\Jk)	.	.
8F/	8D-\	.	.	8A-/	tram	.	4B-\	-ły,	.
8r	8ryy	.	.	8r	.	.	.	.	.
8F-X/	8BB-\	.	.	8A-/	tram	.	4r	.	.
8r	8ryy	.	.	8r	.	.	.	.	.
8F-/	8BB-\	.	.	8A-/	tram	.	8.B-\	Pa-	.
8r	8ryy	.	.	8r	.	.	.	.	.
.	.	.	.	.	.	.	16d-\	-trząc,	.
=78	=78	=78	=78	=78	=78	=78	=78	=78	=78
8E-/	8E-\	.	.	8A-/	tram	.	4.c\	lot	.
8r	8ryy	.	.	8r	.	.	.	.	.
8Fn/	8F\	.	.	8A-/	tram	.	.	.	.
8r	8ryy	.	.	8r	.	.	8c\	swój	.
8F/	8D-\	.	.	8A-/	tram	.	(>8B-\L	w nie-	.
8r	8ryy	.	.	8r	.	.	8e-\J)	.	.
8E-/	8E-\	.	.	8G/	tram	.	(>8d-\L	-bo	.
8r	8ryy	.	.	8r	.	.	8B-\J)	.	.
!!LO:LB:g=original
=79	=79	=79	=79	=79	=79	=79	=79	=79	=79
8E-/	8AA-\	.	.	8A-/	tram	.	2A-/	wzbił.	.
8r	8ryy	.	.	8r	.	.	.	.	.
8C/	8AA-\	.	.	8E-/	tam	.	.	.	.
8r	8ryy	.	.	8r	.	.	.	.	.
8C/	8AA-\	.	.	8E-/	tam	.	4r	.	.
8r	8ryy	.	.	8r	.	.	.	.	.
!	!	!	!	!	!	!LO:DY:a:rj	!	!	!LO:DY:a:rj
4r	4ryy	.	.	8E-/	.	mf	8G/	Słoń-	f
.	.	.	.	8F/	.	.	8A-/	-cem	.
=80	=80	=80	=80	=80	=80	=80	=80	=80	=80
!	!	!	!LO:DY:b:rj	!	!	!	!	!	!
4E-/	4E-\	.	mf	4.G/	.	.	4.B-\	li-	.
4BB-/	4BB-\	.	.	.	.	.	.	.	.
.	.	.	.	8G/	.	.	8B-\	-pca	.
4E-/	4E-\	.	.	4B-\	.	.	(>4g\	pod-	.
4E-/	4GG\	.	.	4B-\	.	.	8f\)	.	.
.	.	.	.	.	.	.	8e-\	-nie-	.
=81	=81	=81	=81	=81	=81	=81	=81	=81	=81
4F/	4FF\	.	.	4A-/	.	.	4e-\	-co-	.
2F/	2FF\	.	.	2A-/	.	.	2dn\	-ny,	.
!	!	!	!	!	!	!	!	!	!LO:HP:a
4r	4ryy	.	.	4r	.	.	8e-\	Wo-	>
.	.	.	.	.	.	.	8d\	-ła	]]
=82	=82	=82	=82	=82	=82	=82	=82	=82	=82
!	!	!	!LO:DY:b:rj	!	!	!LO:DY:b:rj	!	!	!LO:DY:a:rj
4E-/	4GG\	.	p	4G/	Wo-	p	4.c\	na	p
4r	4ryy	.	.	4r	.	.	.	.	.
.	.	.	.	.	.	.	8c\	nas	.
4F/	4GG\	.	.	4Bn\	-ła	.	4.g\	z gór-	.
4r	4ryy	.	.	4r	.	.	.	.	.
.	.	.	.	.	.	.	8Bn\	-nych	.
!!LO:LB:g=original
=83	=83	=83	=83	=83	=83	=83	=83	=83	=83
8E-/	8C\	.	.	8G/	z gór-	.	2c\	stron:	.
8r	8ryy	.	.	8r	.	.	.	.	.
8E-/	8C\	.	.	8G/	-nych	.	.	.	.
8r	8ryy	.	.	8r	.	.	.	.	.
8E-/	8C\	.	.	8G/	stron:	.	4r	.	.
8r	8ryy	.	.	8r	.	.	.	.	.
!	!	!	!	!	!	!	!	!	!LO:DY:a:rj
4r	4ryy	.	.	4r	.	.	8A-/	Po-	mf
.	.	.	.	.	.	.	8c\	-wstań	.
=84	=84	=84	=84	=84	=84	=84	=84	=84	=84
!	!	!	!LO:DY:b:rj	!	!	!LO:DY:b:rj	!	!	!
8E-/	8AA-\	.	p	8c\	tram	p	4.e-\	Pol-	.
8r	8ryy	.	.	8r	.	.	.	.	.
8A-/	8AA-\	.	.	8c\	tram	.	.	.	.
8r	8ryy	.	.	8r	.	.	8c\	-sko,	.
8A-/	8C\	.	.	8e-\	tram	.	4.a-\	skrusz	.
8r	8ryy	.	.	8r	.	.	.	.	.
8A-/	8C\	.	.	8e-\	tram	.	.	.	.
8r	8ryy	.	.	8r	.	.	8g\	kaj-	.
=85	=85	=85	=85	=85	=85	=85	=85	=85	=85
8A-/	8D-\	.	.	8d-\	tram	.	4g\	-da-	.
8r	8ryy	.	.	8r	.	.	.	.	.
8A-/	8D-\	.	.	8d-\	tram	.	4f\	-ny,	.
8r	8ryy	.	.	8r	.	.	.	.	.
8A-/	8D-\	.	.	8d-\	tram	.	4r	.	.
8r	8ryy	.	.	8r	.	.	.	.	.
4r	4ryy	.	.	4r	.	.	8a-\	Dziś	.
.	.	.	.	.	.	.	8f\	twój	.
=86	=86	=86	=86	=86	=86	=86	=86	=86	=86
8A-/	8E-\	.	.	8c\	tram	.	4.e-\	try-	.
8r	8ryy	.	.	8r	.	.	.	.	.
8A-/	8E-\	.	.	8c\	tram	.	.	.	.
8r	8ryy	.	.	8r	.	.	8c\	-umf	.
8G/	8E-\	.	.	8B-\	tram	.	4e-\	al-	.
8r	8ryy	.	.	8r	.	.	.	.	.
8E-/	8E-\	.	.	8G\	tram	.	(>8d-\L	-bo	.
8r	8ryy	.	.	8r	.	.	8B-\J)	.	.
!!LO:PB:g=original
=87	=87	=87	=87	=87	=87	=87	=87	=87	=87
*	*	*	*	*	*	*	*^	*	*
*	*	*	*	*	*	*	*	*	*^	*
!	!	!	!	!	!	!	!LO:TX:a:Bi:t=Ten \ne 2º:rj	!	!	!	!
!LO:TX:a:t=P:w źródle tekst nad pięciolinią:problem	!	!	!	!	!	!	!LO:TX:a:t=P:w źródle tekst 'zgon!' nad pięciolinią:problem	!	!	!	!
!	!	!	!	!	!	!	!LO:TX:a:t=P:problem:note position	!	!	!	!
8E-/	8AA-\	tram	.	1ryy	.	.	2A-/	8A-\	zgon!	tram	.
8r	8ryy	.	.	.	.	.	.	8r	.	.	.
8C/	8AA-\	tram	.	.	.	.	.	8A-\	tram	.	.
8r	8ryy	.	.	.	.	.	.	8r	.	.	.
8C/	8AA-\	tram	.	.	.	.	4rg	8A-\	tram!	.	.
8r	8ryy	.	.	.	.	.	.	8r	.	.	.
!	!	!	!	!	!	!	!LO:TX:a:Bi:t=Tutti	!	!	!	!
!	!	!	!LO:DY:b:rj	!	!	!	!	!	!	!	!LO:DY:b:rj
8A-/	8A-\	.	f	.	.	.	8A-/	8A-\	Hej!	.	f
8A-/	8A-\	.	.	.	.	.	8A-/	8A-\	kto	.	.
*	*	*	*	*	*	*	*	*	*v	*v	*
=88	=88	=88	=88	=88	=88	=88	=88	=88	=88	=88
4A-/	4D-\	.	.	1ryy	.	.	4f/	4d-\	Po-	.
4A-/	(>8D-\L	.	.	.	.	.	4f/	4d-\	-lak	.
.	8E-\J)	.	.	.	.	.	.	.	.	.
4A-/	4F\	.	.	.	.	.	4f/	4d-\	na	.
4B-/	4G\	.	.	.	.	.	4f/	4d-\	bag-	.
=89	=89	=89	=89	=89	=89	=89	=89	=89	=89	=89
(>8B-/L	(<8G\L	.	.	1ryy	.	.	(>8f/L	(<8d-\L	-ne-	.
8c/J)	8A-\J)	.	.	.	.	.	8e-/J)	8c\J)	.	.
4c/	4A-\	.	.	.	.	.	4e-/	4c\	-ty!	.
4r	4r	.	.	.	.	.	4rB	4ryy	.	.
8A-/	8A-\	.	.	.	.	.	8e-/	8c\	Żyj	.
8A-/	8A-\	.	.	.	.	.	8e-/	8c\	swo-	.
=90	=90	=90	=90	=90	=90	=90	=90	=90	=90	=90
4.B-/	4.E-\	.	.	1ryy	.	.	4.g/	4.d-\	-bo-	.
8B-/	8E-\	.	.	.	.	.	8g/	8d-\	-do,	.
4B-/	4E-\	.	.	.	.	.	4g/	4d-\	Pol-	.
(<8A-/L	4E-\	.	.	.	.	.	(<8f/L	4d-\	-sko	.
8B-/J)	.	.	.	.	.	.	8g/J)	.	.	.
!!LO:LB:g=original
=91	=91	=91	=91	=91	=91	=91	=91	=91	=91	=91
4c/	4A-\	.	.	1ryy	.	.	[>2a-/	[<2c\	żyj	.
!LO:TX:a:t=P:w źródle tekst nad pięciolinią:problem	!	!	!	!	!	!	!	!	!	!
(>8A-/L	(<8E-\L	ach!	.	.	.	.	.	.	.	.
8E-/J)	8C\J)	.	.	.	.	.	.	.	.	.
8A-/	8AA-\	żyj!	.	.	.	.	8a-/]	8c\]	.	.
8r	8ryy	.	.	.	.	.	8rB	8ryy	.	.
8A-/	8A-\	.	.	.	.	.	8A-/	8A-\	Ta-	.
8G-X/	8G-\	.	.	.	.	.	8A-/	8A-\	-kim	.
=92	=92	=92	=92	=92	=92	=92	=92	=92	=92	=92
4A-/	4F\	.	.	1ryy	.	.	4f/	4d-\	ha-	.
4A-/	(>8F\L	.	.	.	.	.	4f/	4d-\	-słem	.
.	8E-\J)	.	.	.	.	.	.	.	.	.
4A-/	4D-\	.	.	.	.	.	4f/	4d-\	cnej	.
4Gn/	4BB-\	.	.	.	.	.	4f/	4d-\	pod-	.
=93	=93	=93	=93	=93	=93	=93	=93	=93	=93	=93
8A-/L	4C\	.	.	1ryy	.	.	(<8f/L	4c\	-nie-	.
8G/J	.	.	.	.	.	.	8e-/J)	.	.	.
(<4G/	2C\	.	.	.	.	.	2e-/	(>4c\	-ty	.
4E-/)	.	.	.	.	.	.	.	4G\)	.	.
8E-/	8C-X\	.	.	.	.	.	8e-/	8A-\	Trą-	.
8E-/	8C-\	.	.	.	.	.	8e-/	8A-\	-bo	.
=94	=94	=94	=94	=94	=94	=94	=94	=94	=94	=94
4.E-/	4.BB-\	.	.	1ryy	.	.	4.g/	4.d-\	na-	.
8G/	8BB-\	.	.	.	.	.	8g/	8d-\	-sza	.
4B-/	4BB-\	.	.	.	.	.	4g/	4d-\	wro-	.
(<8A-/L	4E-\	.	.	.	.	.	(>8f/L	4d-\	-gom	.
8B-/J)	.	.	.	.	.	.	8g/J)	.	.	.
!!LO:LB:g=original
=95	=95	=95	=95	=95	=95	=95	=95	=95	=95	=95
4A-/	4F\	.	.	1ryy	.	.	4a-/	4c\	grzmij!	.
4r	4r	.	.	.	.	.	4rB	4ryy	.	.
4.d-/	4.D-\	.	.	.	.	.	4.a-/	4.d-\	Trą-	.
8A-/	8D-\	.	.	.	.	.	8f/	8d-\	-bo	.
=96	=96	=96	=96	=96	=96	=96	=96	=96	=96	=96
4.A-/	4.E-\	.	.	1ryy	.	.	4.e-/	4.c\	na-	.
8E-/	8E-\	.	.	.	.	.	8c/	8A-\	-sza	.
4E-/	4E-\	.	.	.	.	.	4e-/	4G\	wro-	.
(<8E-/L	4E- 4EE-\	.	.	.	.	.	(<8d-/L	4G\	-gom	.
8D-/J)	.	.	.	.	.	.	8B-/J)	.	.	.
=97	=97	=97	=97	=97	=97	=97	=97	=97	=97	=97
2C/	2AA-\	.	.	1ryy	.	.	2A-/	2A-\	grzmij!	.
4r;>	4ryy	.	.	.	.	.	4rB;>	4ryy	.	.
!	!	!	!LO:DY:a:rj	!	!	!	!	!	!	!LO:DY:b:rj
4A-/	4A-\	.	p	.	.	.	4A-/	4A-\	Lecz	p
=98||	=98||	=98||	=98||	=98||	=98||	=98||	=98||	=98||	=98||	=98||
!!!OMD: Piu lento
2F/	2F\	.	.	1ryy	.	.	2c/	2A-\	cóż?	.
4r	4ryy	.	.	.	.	.	4rB	4ryy	.	.
8F/	8E-\	.	.	.	.	.	8d-/	8An\	lecz	.
16r	16ryy	.	.	.	.	.	16rB	16ryy	.	.
16F/	16E-\	.	.	.	.	.	16c/	16A\	cóż	.
!!LO:LB:g=original
=99	=99	=99	=99	=99	=99	=99	=99	=99	=99	=99
*	*	*	*^	*	*	*	*	*	*	*
*	*	*	*	*	*	*	*	*	*	*	*^
4F/	4D-\	.	.	.	1ryy	.	.	4f/	4B-\	da-	.	.
4F/	4D-\	.	.	.	.	.	.	4B-/	4B-\	-lej?	.	.
!LO:TX:a:Bi:t=poco sostenuto	!	!	!	!	!	!	!	!	!	!	!	!
4r	4ryy	.	.	.	.	.	.	4rB	4ryy	.	.	.
!	!	!	!	!	!	!	!	!LO:TX:b:Bi:t=poco sostenuto	!	!	!	!
!	!	!	!LO:HP:a	!LO:HP:b	!	!	!	!	!	!	!LO:HP:a	!LO:HP:b
8G-X/	8D-\	.	<	<	.	.	.	8en/	8B-\	cóż	<	<
8F/	8D-\	.	[[	[[	.	.	.	8f/	8B-\	się	[[	[[
=100	=100	=100	=100	=100	=100	=100	=100	=100	=100	=100	=100	=100
4.E-^/	4.C^\	.	.	.	1ryy	.	.	4.g-X^>/	4.B-^<\	sta-	.	.
8G-X/	8C\	.	.	.	.	.	.	8e-/	8B-\	-ło	.	.
!	!	!	!LO:HP:a	!LO:HP:b	!	!	!	!	!	!	!LO:HP:a	!LO:HP:b
4E-/	4EE-\	.	>	>	.	.	.	4c/	4G-X\	da-	>	>
4D-/	4EEn\	.	.	.	.	.	.	4B-/	4G-\	-lej	.	.
=101	=101	=101	=101	=101	=101	=101	=101	=101	=101	=101	=101	=101
[>2C/	[<2FF\	.	]	]	1ryy	.	.	[>2An/	[<2F\	co?	]	]
4C;>/]	4FF;<\]	.	.	.	.	.	.	4A;>/]	4F;<\]	.	.	.
4r	4ryy	.	.	.	.	.	.	4rB	4ryy	.	.	.
*	*	*	*	*	*	*	*	*	*	*	*v	*v
*	*	*	*v	*v	*	*	*	*	*	*	*
*	*	*	*	*	*	*	*v	*v	*	*
*v	*v	*	*	*	*	*	*	*	*
=102||	=102||	=102||	=102||	=102||	=102||	=102||	=102||	=102||
*^	*	*	*	*	*	*	*	*
!!!OMD: Andante mesto
*k[b-e-a-d-g-]	*k[b-e-a-d-g-]	*	*	*k[b-e-a-d-g-]	*	*	*k[b-e-a-d-g-]	*	*
*M3/4	*M3/4	*	*	*M3/4	*	*	*M3/4	*	*
!	!	!	!	!LO:TX:a:Bi:t=Ten.2°.:rj	!	!	!	!	!
!	!	!	!LO:DY:b:rj	!	!	!LO:DY:b:rj	!	!	!
2.D-/	2.BB-\	.	pp	2.F/	Hej!	pp	2.r	.	.
=103	=103	=103	=103	=103	=103	=103	=103	=103	=103
2.D-/	2.BB-\	.	.	2.F/	hej,	.	2.r	.	.
=104	=104	=104	=104	=104	=104	=104	=104	=104	=104
!	!	!	!	!	!	!	!LO:TX:a:Bi:t=molto cantabile	!	!
!	!	!	!	!	!	!	!	!	!LO:DY:b:rj
2.D-/	2.BB-\	.	.	2.F/	hej.	.	8B-\	I-	p
.	.	.	.	.	.	.	8B-\	-dzie	.
.	.	.	.	.	.	.	4.f\	żoł-	.
.	.	.	.	.	.	.	8B-\	-nierz	.
!!LO:LB:g=original
=105	=105	=105	=105	=105	=105	=105	=105	=105	=105
(<2F/	2.BB-\	.	.	(<2A-/	hej,	.	8f\	bo-	.
.	.	.	.	.	.	.	8f\	-rem	.
.	.	.	.	.	.	.	8a-\	la-	.
.	.	.	.	.	.	.	8f\	-sem	.
4G-/)	.	.	.	4B-/)	.	.	8e-\	bo-	.
.	.	.	.	.	.	.	8e-\	-rem	.
=106	=106	=106	=106	=106	=106	=106	=106	=106	=106
(<4F/	2BB-\	.	.	(>4d-\	hej,	.	8f\	la-	.
.	.	.	.	.	.	.	8B-\	-sem	.
4E-/)	.	.	.	4c\)	.	.	8e-\	Przy-	.
.	.	.	.	.	.	.	8g-\	-mie-	.
4D-/	4BB-\	.	.	4B-\	hej,	.	8f\	-ra-	.
.	.	.	.	.	.	.	8B-\	-jąc	.
=107	=107	=107	=107	=107	=107	=107	=107	=107	=107
(>4C/	2.BB-\	.	.	(<4An/	hej!	.	8e-\	z gło-	.
.	.	.	.	.	.	.	(>16d-\LL	-du	.
.	.	.	.	.	.	.	16c\JJ)	.	.
2D-/)	.	.	.	2F/)	.	.	4B-\	cza-	.
.	.	.	.	.	.	.	4B-\	-sem	.
!!LO:LB:g=original
=108	=108	=108	=108	=108	=108	=108	=108	=108	=108
*	*	*	*	*	*	*	*^	*	*
!	!	!	!	!	!	!	!LO:TX:a:Bi:t=Ten Iº \n2º:rj	!	!	!
!	!	!	!	!	!	!	!	!	!	!LO:DY:b:rj
8D-/	8BB-\	.	.	2.ryy	.	.	2.rg	8E-\	I-	p
8D-/	8BB-\	.	.	.	.	.	.	8F\	-dzie	.
4D-/	4BB-\	.	.	.	.	.	.	4F\	żoł-	.
4C/	4FF\	.	.	.	.	.	.	4A-X\	-nierz	.
=109	=109	=109	=109	=109	=109	=109	=109	=109	=109	=109
8BB-/	8GG-\	.	.	2.ryy	.	.	2.rg	8G-\	bo-	.
8C/	8GG-\	.	.	.	.	.	.	8A-\	-rem	.
4D-/	(>8GG-\L	.	.	.	.	.	.	4B-\	la-	.
.	8AA-\J)	.	.	.	.	.	.	.	.	.
4D-/	4BB-\	.	.	.	.	.	.	(>8A-\L	-sem	.
.	.	.	.	.	.	.	.	8G-\J)	.	.
=110	=110	=110	=110	=110	=110	=110	=110	=110	=110	=110
*	*	*	*	*	*	*	*	*	*	*^
!	!	!	!LO:DY:a:rj	!	!	!	!	!	!	!LO:DY:a:rj	!LO:DY:b:rj
8D-/	8BB-\	.	mf	2.ryy	.	.	8B-/	8F\	su-	mf	mf
8D-/	8BB-\	.	.	.	.	.	8B-/	8F\	-knia	.	.
4.D-/	4.BB-\	.	.	.	.	.	4.f/	4.B-\	na	.	.
8F/	8D-\	.	.	.	.	.	8B-/	8B-\	nim	.	.
*	*	*	*	*	*	*	*	*	*	*v	*v
=111	=111	=111	=111	=111	=111	=111	=111	=111	=111	=111
8A-/	8C\	.	.	2.ryy	.	.	8f/	8c\	ob-	.
8A-/	8C\	.	.	.	.	.	8f/	8c\	-la-	.
8F/	8AA-\	.	.	.	.	.	8a-/	8c\	-tu-	.
8F/	8BB-\	.	.	.	.	.	8f/	8d-\	-je	.
8G-/	8E-\	.	.	.	.	.	8e-/	8B-\	o-	.
8G-/	8C\	.	.	.	.	.	8e-/	8B-\	-bla-	.
!!LO:PB:g=original
=112	=112	=112	=112	=112	=112	=112	=112	=112	=112	=112
8F/	8D-\	.	.	2.ryy	.	.	8f/	8B-\	-tu-	.
8G-/	8E-\	.	.	.	.	.	8B-/	8B-\	-je	.
8B-/	8G-\	.	.	.	.	.	8e-/	8B-\	Wiatr	.
8B-/	8E-\	.	.	.	.	.	8g-/	8e-\	dziu-	.
8An/	8F\	.	.	.	.	.	8f/	8c\	-ra-	.
8B-/	8G-\	.	.	.	.	.	8B-/	8B-\	-mi	.
=113	=113	=113	=113	=113	=113	=113	=113	=113	=113	=113
*	*	*^	*	*	*	*	*	*	*	*
!LO:TX:a:t=P:w źródle jeden z tekstów nad pięciolinią:problem	!	!	!	!	!	!	!	!	!	!	!
!LO:TX:a:t=P:problem:w kodzie ułożenie tekstu nie do końca poprawne ze względu na problem z renderingiem	!	!	!	!	!	!	!	!	!	!	!
!	!	!	!	!	!	!	!	!	!	!	!LO:HP:a
(>2G-/	8E-\	Ach!	wiatr	.	2.ryy	.	.	2.e-/	2.B-\	Ach!	<
!	!	!	!	!LO:HP:a	!	!	!	!	!	!	!
.	8D-\	.	dziu-	<	.	.	.	.	.	.	.
.	8C\	.	-ra-	.	.	.	.	.	.	.	.
.	8BB-\	.	-mi	.	.	.	.	.	.	.	.
4E-/)	8AA-\	.	przed-	.	.	.	.	.	.	.	.
.	8GG-\	.	-mu	[	.	.	.	.	.	.	[
=114	=114	=114	=114	=114	=114	=114	=114	=114	=114	=114	=114
!	!	!	!	!LO:HP:a	!	!	!	!	!	!	!LO:HP:a
8G-/	4FF\	.	-chu-	>	2.ryy	.	.	8e-/	8An\	prze-	>
(<16F/LL	.	.	.	.	.	.	.	16d-/LL	8A\	-dmu-	.
16E-/JJ)	.	.	.	.	.	.	.	16c/JJ	.	.	.
4D-/	2BB-;<\	.	-je	.	.	.	.	4B-/	4F\	-chu-	.
4D-;>/	.	.	.	]	.	.	.	4B-;>/	4F;<\	-je.	]
*	*	*v	*v	*	*	*	*	*	*	*	*
=115	=115	=115	=115	=115	=115	=115	=115	=115	=115	=115
!	!	!	!	!	!	!	!LO:TX:a:t=P:w źródle jeden z tekstów nad pięciolinią:problem	!	!	!
!	!	!	!	!	!	!	!	!	!	!LO:DY:a:rj
4r	2.rGG	.	.	2.ryy	.	.	[>2.f/	4r	Hej	p
!	!	!	!	!	!	!	!	!	!	!LO:DY:b:rj
4r	.	.	.	.	.	.	.	[<2d-\	Hej!	p
!LO:TX:a:t=P:w źródle tekst nad pięciolinią:problem	!	!	!	!	!	!	!	!	!	!
!	!	!	!LO:DY:a:rj	!	!	!	!	!	!	!
[>4B-/	.	Hej!	p	.	.	.	.	.	.	.
=116	=116	=116	=116	=116	=116	=116	=116	=116	=116	=116
!	!	!	!LO:DY:b:rj	!	!	!	!	!	!	!
(>2B-/]	[<2.BB-\	Hej!	p	2.ryy	.	.	2.f/]	2.d-\]	.	.
4A-X/)	.	.	.	.	.	.	.	.	.	.
!!LO:LB:g=original
=117	=117	=117	=117	=117	=117	=117	=117	=117	=117	=117
!LO:TX:a:Bi:t=mysterioso.	!	!	!	!	!	!	!LO:TX:a:Bi:t=mysterioso	!	!	!
8Gn/	2.BB-\]	.	.	2.ryy	.	.	8en/	8c\	cóż	.
8En/	.	.	.	.	.	.	8c/	8Gn\	się	.
8F/	.	.	.	.	.	.	8d-/	8A-\	sta-	.
8E/	.	.	.	.	.	.	8c/	8G\	-ło	.
8A-/	.	.	.	.	.	.	8f/	8d-\	da-	.
8F/	.	.	.	.	.	.	8d-/	8A-\	-lej	.
=118	=118	=118	=118	=118	=118	=118	=118	=118	=118	=118
*	*	*	*	*	*	*	*	*	*	*^
!LO:TX:a:t=P:problem:w kodzie ułożenie tekstu nie do końca poprawne ze względu na problem z renderingiem	!	!	!	!	!	!	!	!	!	!	!
!	!	!	!LO:HP:a	!	!	!	!	!	!	!LO:HP:a	!LO:HP:b
2En/	8BB-\	cóż	<	2.ryy	.	.	2c/	2Gn\	co?	<	<
.	8GGn\	się	.	.	.	.	.	.	.	.	.
.	4C\	sta	.	.	.	.	.	.	.	.	.
!	!	!	!LO:HP:a	!	!	!	!	!	!	!LO:HP:a	!LO:HP:b
4F/	4BBn\	-ło	[ >	.	.	.	4d-/	4G\	ach!	[ >	[ >
=119	=119	=119	=119	=119	=119	=119	=119	=119	=119	=119	=119
2.En/	2.C\	co?	]	2.ryy	.	.	2.c/	2.Gn\	co?	]	]
*k[cancel]	*k[cancel]	*	*	*k[cancel]	*	*	*k[cancel]	*k[cancel]	*	*	*
*	*	*	*	*	*	*	*	*	*	*v	*v
*	*	*	*	*	*	*	*v	*v	*	*
*v	*v	*	*	*	*	*	*	*	*
=120||	=120||	=120||	=120||	=120||	=120||	=120||	=120||	=120||
*^	*	*	*	*	*	*	*	*
*	*	*	*	*	*	*	*^	*	*
*	*	*^	*	*	*	*	*	*	*	*
!!!OMD: Andantino cantabile
*k[b-]	*k[b-]	*	*	*	*k[b-]	*	*	*k[b-]	*k[b-]	*	*
!LO:TX:a:t=P:problem:w kodzie ułożenie tekstu nie do końca poprawne ze względu na problem z renderingiem	!	!	!	!	!	!	!	!	!	!	!
!	!	!	!	!	!	!	!	!	!	!	!LO:DY:b:rj
4r	2ryy	.	.	.	2.ryy	.	.	8c/	8c\	Le-	p
.	.	.	.	.	.	.	.	8c/	8c\	-cą	.
4r	.	.	.	.	.	.	.	4d/	4Bn\	lis-	.
!LO:TX:a:t=P:w źródle jeden z tekstów nad pięciolinią:problem	!	!	!	!	!	!	!	!	!	!	!
!	!	!	!	!LO:DY:b:rj	!	!	!	!	!	!	!
4G/	4C\	ach!	ach!	p	.	.	.	4e/	4B-X\	-tki	.
=121	=121	=121	=121	=121	=121	=121	=121	=121	=121	=121	=121
2F/	8FF\	le-	le-	.	2.ryy	.	.	2f/	2A\	z drze-	.
.	8AA\	.	-cą	.	.	.	.	.	.	.	.
.	4D\	.	li	.	.	.	.	.	.	.	.
4D/	4C\	-cą	-stki	.	.	.	.	4A/	4F\	-wa	.
!!LO:LB:g=original
*	*	*v	*v	*	*	*	*	*	*	*	*
=122	=122	=122	=122	=122	=122	=122	=122	=122	=122	=122
8D/	8BB-\	.	.	2.ryy	.	.	8G/	8F\	co	.
8D/	8AA\	.	.	.	.	.	8A/	8F\	wy-	.
4.D/	4.GG\	.	.	.	.	.	4.B-/	4.F\	-ro-	.
8C/	8C\	.	.	.	.	.	8E/	8E\	-sły	.
=123	=123	=123	=123	=123	=123	=123	=123	=123	=123	=123
*	*	*^	*	*	*	*	*	*	*	*
4C/	4BB-\	.	.	.	2.ryy	.	.	4G/	4E\	wol-	.
4C/	4AA\	.	.	.	.	.	.	4F/	4F\	-ne,	.
!LO:TX:a:t=P:w źródle jeden z tekstów nad pięciolinią:problem	!	!	!	!	!	!	!	!	!	!	!
8C/	8C\	Nad	Nad	.	.	.	.	4rB	4ryy	.	.
8BB-/	8BB-\	mo-	mo-	.	.	.	.	.	.	.	.
=124	=124	=124	=124	=124	=124	=124	=124	=124	=124	=124	=124
2C/	(<4AA\	-gi-	-gi-	.	2.ryy	.	.	8F/	8E-X\	Nad	.
!	!	!	!	!	!	!	!	!	!	!	!LO:HP:a
.	.	.	.	.	.	.	.	8F/	8E-\	mo-	<
.	4BB-\)	.	.	.	.	.	.	4G/	4E-\	-gi-	.
4E-X/	4C\	-łą	-łą	.	.	.	.	4A/	4F\	-łą	[
*	*	*v	*v	*	*	*	*	*	*	*	*
=125	=125	=125	=125	=125	=125	=125	=125	=125	=125	=125
!	!	!	!	!	!	!	!	!	!	!LO:HP:a
2F/	2E-X\	.	.	2.ryy	.	.	2c/	2A\	śpie-	>
4F/	4D\	.	.	.	.	.	4B-/	4B-\	-wa	]
=126	=126	=126	=126	=126	=126	=126	=126	=126	=126	=126
!	!	!	!	!	!	!	!LO:TUP:a:problem:brak klamry	!	!	!
8.D/	8.D\	.	.	2.ryy	.	.	(>12A/L	8.F\	ja-	.
.	.	.	.	.	.	.	12G/J)	.	.	.
.	.	.	.	.	.	.	12A/	.	-kieś	.
16D/	16D\	.	.	.	.	.	.	16F\	.	.
4.D/	4.GG\	.	.	.	.	.	4.B-/	4.E\	pta-	.
8C/	8AA\	.	.	.	.	.	8A/	8F\	-szę	.
=127	=127	=127	=127	=127	=127	=127	=127	=127	=127	=127
*	*	*	*	*	*	*	*	*	*^	*
!	!	!	!	!	!	!	!LO:TX:a:t=P:w źródle jeden z tekstów nad pięciolinią:problem	!	!	!	!
!	!	!	!	!	!	!	!LO:TX:a:t=P:problem:w kodzie ułożenie tekstu nie do końca poprawne ze względu na problem z renderingiem	!	!	!	!
2D/	(<4BB-\	.	.	2.ryy	.	.	4A/	2F\	pol-	pol	.
.	4BBn\)	.	.	.	.	.	2G/	.	-ne,	.	.
4E/	4C\	.	.	.	.	.	.	4E\	.	ne	.
!!LO:LB:g=original
*	*	*	*	*	*	*	*	*	*v	*v	*
=128	=128	=128	=128	=128	=128	=128	=128	=128	=128	=128
*	*	*	*^	*	*	*	*	*	*	*
*	*	*	*	*	*	*	*	*	*	*	*^
8G/	8E\	.	.	.	2.ryy	.	.	8c/	8G\	Nie	.	.
8G/	8E\	.	.	.	.	.	.	8B-/	8B-\	by-	.	.
!	!	!	!LO:HP:a	!LO:HP:b	!	!	!	!	!	!	!LO:HP:a	!LO:HP:b
4G/	4D\	.	<	<	.	.	.	4d/	4B-\	-ło,	<	<
4B-/	4C\	.	[[	[[	.	.	.	4e/	4c\	nie	[[	[[
*	*	*	*	*	*	*	*	*	*	*	*v	*v
*	*	*	*v	*v	*	*	*	*	*	*	*
=129	=129	=129	=129	=129	=129	=129	=129	=129	=129	=129
2A/	2F\	.	.	2.ryy	.	.	2f/	2c\	by-	.
4A/	(<8A\L	.	.	.	.	.	4c/	4c\	-ło	.
.	8F\J)	.	.	.	.	.	.	.	.	.
=130	=130	=130	=130	=130	=130	=130	=130	=130	=130	=130
!	!	!	!LO:HP:a	!	!	!	!	!	!	!LO:HP:b
4.B-/	4.E\	.	<	2.ryy	.	.	4.g/	4.c\	Pol-	<
8G/	8E\	.	.	.	.	.	8c/	8c\	-sko	.
8F/	8D\	.	.	.	.	.	8Bn/	8Bn\	szczę-	.
8E/	8C\	.	.	.	.	.	8c/	8B-X\	-ścia	.
=131	=131	=131	=131	=131	=131	=131	=131	=131	=131	=131
*	*	*	*^	*	*	*	*	*	*	*
!	!	!	!LO:DY:b:rj	!	!	!	!	!	!	!	!LO:DY:b:rj
!	!	!	!LO:HP:a	!LO:HP:b	!	!	!	!	!	!	!
2F/	2AA\	.	f >	>	2.ryy	.	.	2a/	2c\	to-	f >
4F/	4AA\	.	]]	]]	.	.	.	4g/	4c#X\	-bie,	]]
=132	=132	=132	=132	=132	=132	=132	=132	=132	=132	=132	=132
!	!	!	!LO:DY:a	!LO:DY:b	!	!	!	!	!	!	!LO:DY:b
8F/	8BB-\	.	mf	mf	2.ryy	.	.	8g/	8e\	Wszy-	mf
8F/	8BB-\	.	.	.	.	.	.	8f/	8d\	-stko	.
(>4G/	4.BB-\	.	.	.	.	.	.	(>4e/	(<4c#X\	się	.
8F/)	.	.	.	.	.	.	.	8f/)	8d\)	.	.
8F/	8D\	.	.	.	.	.	.	8d/	8B-\	zmie-	.
*	*	*	*v	*v	*	*	*	*	*	*	*
=133	=133	=133	=133	=133	=133	=133	=133	=133	=133	=133
*	*	*	*^	*	*	*	*	*	*	*
*	*	*	*	*	*	*	*	*	*	*	*^
!	!	!	!LO:HP:a	!LO:HP:b	!	!	!	!	!	!	!LO:HP:a	!LO:HP:b
2E/	2GG\	.	>	>	2.ryy	.	.	2d/	2B-\	-ni-	>	>
4F/	4AA\	.	]	]	.	.	.	4c/	4A\	-ło,	]	]
!!LO:LB:g=original
*	*	*	*	*	*	*	*	*	*	*	*v	*v
*	*	*	*v	*v	*	*	*	*	*	*	*
=134	=134	=134	=134	=134	=134	=134	=134	=134	=134	=134
*	*	*	*^	*	*	*	*	*	*	*
!	!	!	!LO:DY:a:rj	!LO:DY:b:rj	!	!	!	!	!	!	!LO:DY:b:rj
8E/	8C\	.	p	p	2.ryy	.	.	8G/	8G\	A	p
8E/	8C\	.	.	.	.	.	.	8d/	8B-\	twe	.
4.F/	4.D\	.	.	.	.	.	.	4.c/	4.A\	dzie-	.
8G/	8E\	.	.	.	.	.	.	8B-/	8G\	-ci	.
*	*	*	*v	*v	*	*	*	*	*	*	*
=135	=135	=135	=135	=135	=135	=135	=135	=135	=135	=135
(>4F/	(<4D\	.	.	2.ryy	.	.	2B-/	(<4F\	w gro-	.
4E/)	4C\)	.	.	.	.	.	.	4G\)	.	.
4F/	4F\	.	.	.	.	.	4A/	4A\	-bie.	.
=136	=136	=136	=136	=136	=136	=136	=136	=136	=136	=136
8E/	8C\	.	.	2.ryy	.	.	8c/	8G\	Nie	.
8E/	8C\	.	.	.	.	.	8c/	8G\	by-	.
!LO:TX:a:Bi:t=crescendo:problem:dynamics with extention lines	!	!	!	!	!	!	!	!	!	!
!	!	!	!	!	!	!	!LO:TX:b:Bi:t=crescendo:problem:dynamics with extention lines	!	!	!
!	!	!	!LO:HP:a:Bi:t=crescendo	!	!	!	!	!	!	!LO:HP:b:Bi:t=crescendo
4F/	4GG\	.	<	.	.	.	4d/	4Bn\	-ło,	<
4G/	4C\	.	.	.	.	.	4e/	4B-X\	nie	.
=137	=137	=137	=137	=137	=137	=137	=137	=137	=137	=137
2F/	(<4FF\	.	.	2.ryy	.	.	2f/	(<4A\	by-	.
.	4GG\)	.	[[	.	.	.	.	4B-\)	.	[[
4F/	(>8AA\L	.	.	.	.	.	4c/	4c\	-ło	.
.	8D\J)	.	.	.	.	.	.	.	.	.
=138	=138	=138	=138	=138	=138	=138	=138	=138	=138	=138
(4E/	(4C\	Pols-	.	2.ryy	.	.	4.g/	4.c\	Pol-	.
4F/)	4D\)	.	.	.	.	.	.	.	.	.
.	.	.	.	.	.	.	8c/	8c\	-sko	.
4G/	4E\	-ko	.	.	.	.	8Bn/	8Bn\	szczę-	.
.	.	.	.	.	.	.	8c/	8c\	-ścia	.
=139	=139	=139	=139	=139	=139	=139	=139	=139	=139	=139
!	!	!	!LO:DY:b:rj	!	!	!	!	!	!	!LO:DY:b:rj
2A/	(<4AA\	.	f	2.ryy	.	.	2a/	(>4c#X\	to-	f
.	4BBn\)	.	.	.	.	.	.	4d\)	.	.
4A/	4C#X\	.	.	.	.	.	4g/	4e\	-bie,	.
!!LO:LB:g=original
=140	=140	=140	=140	=140	=140	=140	=140	=140	=140	=140
8B-/	8D\	.	.	2.ryy	.	.	8g/	8e\	Wszy-	.
8A/	8D\	.	.	.	.	.	8f/	8d\	-stko	.
4A/	4G\	.	.	.	.	.	(>4e/	(<4c#X\	się	.
4A/	4F\	.	.	.	.	.	8f/)	8d\)	.	.
.	.	.	.	.	.	.	8d/	8A\	zmie-	.
=141	=141	=141	=141	=141	=141	=141	=141	=141	=141	=141
*	*	*	*^	*	*	*	*	*	*	*
!	!	!	!LO:HP:a	!LO:HP:b	!	!	!	!	!	!	!LO:HP:b
2G/	2E\	.	>	>	2.ryy	.	.	2d/	2B-\	-ni-	>
4A/	4F\	.	]	]	.	.	.	4c/	4A\	-ło,	]
*	*	*	*v	*v	*	*	*	*	*	*	*
=142	=142	=142	=142	=142	=142	=142	=142	=142	=142	=142
!	!	!	!LO:DY:b:rj	!	!	!	!	!	!	!LO:DY:b:rj
8G/	8C\	.	p	2.ryy	.	.	8e/	8B-\	A	p
8F/	8C\	.	.	.	.	.	8d/	8B-\	twe	.
(>8E/L	4C\	.	.	.	.	.	4c/	(<8c\L	dzie-	.
8D/J)	.	.	.	.	.	.	.	8B-\J)	.	.
4E/	4C\	.	.	.	.	.	4c/	(<8A\L	-ci	.
.	.	.	.	.	.	.	.	8G\J)	.	.
=143	=143	=143	=143	=143	=143	=143	=143	=143	=143	=143
(<8E/L	4FF\	.	.	2.ryy	.	.	4B-/	4G\	w gro-	.
8D-X/J)	.	.	.	.	.	.	.	.	.	.
[>2C/	[<2FF\	.	.	.	.	.	[>2A/	[<2F\	-bie.	.
=144	=144	=144	=144	=144	=144	=144	=144	=144	=144	=144
4C;>/]	4FF;<\]	.	.	2.ryy	.	.	4A;>/]	4F;<\]	.	.
4r	4r	.	.	.	.	.	4rB	4ryy	.	.
!	!	!	!LO:DY:b:rj	!	!	!	!	!	!	!LO:DY:b:rj
4F/	4F\	.	mf	.	.	.	4A/	4F\	Lecz	mf
=145	=145	=145	=145	=145	=145	=145	=145	=145	=145	=145
*	*	*	*^	*	*	*	*	*	*	*
!	!	!	!LO:HP:a	!LO:HP:b	!	!	!	!	!	!	!LO:HP:b
2F/	2E-X\	.	<	<	2.ryy	.	.	2c/	2A\	choć	<
8.F/	8.D\	.	[	[	.	.	.	8.d/	8.B-\	się	.
16F/	16D\	.	.	.	.	.	.	16d/	16B-\	zmie-	[
!!LO:PB:g=original
*	*	*	*v	*v	*	*	*	*	*	*	*
=146	=146	=146	=146	=146	=146	=146	=146	=146	=146	=146
4G-X/	4C\	.	.	2.ryy	.	.	4f/	4B-\	-ni-	.
4G-/	4C\	.	.	.	.	.	4e/	4B-\	-ło,	.
4r	4ryy	.	.	.	.	.	8re	4rE	.	.
!	!	!	!	!	!	!	!LO:TX:a:t=P:w źródle tekst nad pięciolinią:problem	!	!	!
.	.	.	.	.	.	.	8c/	.	Choć	.
=147	=147	=147	=147	=147	=147	=147	=147	=147	=147	=147
!	!	!	!	!	!	!	!LO:TX:a:t=P:w źródle tekst nad pięciolinią:problem	!	!	!
8r	8ryy	.	.	2.ryy	.	.	2e-X/	8r	los	.
8E-X/	8GG-X\	.	.	.	.	.	.	8B-\	Choć	.
4E-/	4GG-\	.	.	.	.	.	.	4B-\	los	.
8.E-/	8.GG-\	.	.	.	.	.	8.c/	8.B-\	gnę-	.
16En/	16GG-\	.	.	.	.	.	16d/	16B-\	-bi	.
=148	=148	=148	=148	=148	=148	=148	=148	=148	=148	=148
(<4F/	2FF;<\	.	.	2.ryy	.	.	(>4d/	2A;<\	nas:	.
4E-X;>/)	.	.	.	.	.	.	4c;>/)	.	.	.
4r	4r	.	.	.	.	.	4rB	4ryy	.	.
*	*	*	*	*	*	*	*v	*v	*	*
*v	*v	*	*	*	*	*	*	*	*
=149||	=149||	=149||	=149||	=149||	=149||	=149||	=149||	=149||
*^	*	*	*	*	*	*	*	*
*	*	*	*	*	*	*	*^	*	*
!!!OMD: Allegretto energico.
*k[b-e-]	*k[b-e-]	*	*	*k[b-e-]	*	*	*k[b-e-]	*k[b-e-]	*	*
*M2/4	*M2/4	*	*	*M2/4	*	*	*M2/4	*M2/4	*	*
!	!	!	!LO:DY:b:rj	!	!	!	!	!	!	!LO:DY:b:rj
8D/	8BB-\	.	f	2ryy	.	.	8B-/	8F\	Bar-	f
8F/	8BB-\	.	.	.	.	.	8d/	8B-\	-to-	.
4B-/	4BB-\	.	.	.	.	.	4f/	4d\	-szu	.
=150	=150	=150	=150	=150	=150	=150	=150	=150	=150	=150
8D/	8D\	.	.	2ryy	.	.	8B-/	8F\	Bar-	.
8F/	(<16F\LL	.	.	.	.	.	8d/	8B-\	-to-	.
.	16D\JJ)	.	.	.	.	.	.	.	.	.
4B-/	4BB-\	.	.	.	.	.	4f/	4d\	-szu	.
=151	=151	=151	=151	=151	=151	=151	=151	=151	=151	=151
8G/	8E-\	.	.	2ryy	.	.	8e-/	8B-\	oj!	.
4B-/	4C\	.	.	.	.	.	4g/	4e-\	nie	.
8A/	8F\	.	.	.	.	.	8g/	8e-\	trać-	.
!!LO:LB:g=original
=152	=152	=152	=152	=152	=152	=152	=152	=152	=152	=152
8.B-/	8.BB-\	.	.	2ryy	.	.	8.f/	8.d\	-wa	.
16B-/	16D\	.	.	.	.	.	16f/	16d\	na-	.
8B-/	8F\	.	.	.	.	.	8d/	8B-\	-dzie-	.
8B-/	8A-X\	.	.	.	.	.	8B-/	8B-\	-i,	.
=153	=153	=153	=153	=153	=153	=153	=153	=153	=153	=153
8B-/	8G\	.	.	2ryy	.	.	8e-/	8e-\	oj!	.
4B-/	4E-\	.	.	.	.	.	4g/	4e-\	nie	.
8A/	8C\	.	.	.	.	.	8g/	8e-\	trać-	.
=154	=154	=154	=154	=154	=154	=154	=154	=154	=154	=154
8.B-/	8.D\	.	.	2ryy	.	.	8.f/	8.d\	-wa	.
16B-/	16BB-\	.	.	.	.	.	16f/	16d\	na-	.
8F/	8D\	.	.	.	.	.	8d/	8B-\	-dzie-	.
8G/	8G\	.	.	.	.	.	8B-/	8B-\	-i,	.
=155	=155	=155	=155	=155	=155	=155	=155	=155	=155	=155
8F/	8F\	.	.	2ryy	.	.	8c/	8A\	Bóg	.
8G/	8G\	.	.	.	.	.	8e-/	8A\	po-	.
8F/	8F\	.	.	.	.	.	8d/	8A\	-bło-	.
8F/	8E-\	.	.	.	.	.	8c/	8A\	-go-	.
=156	=156	=156	=156	=156	=156	=156	=156	=156	=156	=156
4F/	4D\	.	.	2ryy	.	.	4f/	4B-\	-sła-	.
4En/	4C\	.	.	.	.	.	4B-/	4G\	-wi,	.
=157	=157	=157	=157	=157	=157	=157	=157	=157	=157	=157
8F/	8F\	Oj-	.	2ryy	.	.	8F/	8F\	Oj-	.
8E-X/	8E-\	-czy-	.	.	.	.	8A/	8F\	-czy-	.
4E-/	8C\	-znę	.	.	.	.	4c/	4A\	-znę	.
.	8FF\	nam	.	.	.	.	.	.	.	.
!!LO:LB:g=original
=158	=158	=158nam	=158	=158	=158	=158	=158	=158	=158	=158
8D/	4BB-\	.	.	2ryy	.	.	8B-/	8F\	nam	.
4F/	.	.	.	.	.	.	4d/	4B-\	zba-	.
.	4AA-X\	.	.	.	.	.	.	.	.	.
8F/	.	.	.	.	.	.	8d/	8B-\	-wi,	.
=159	=159	=159	=159	=159	=159	=159	=159	=159	=159	=159
8E-/	4GG\	.	.	2ryy	.	.	8c/	8B-\	Bóg	.
8E-/	.	.	.	.	.	.	8e-/	8B-\	po-	.
8E-/	8AAn\	.	.	.	.	.	8d/	8F\	-bło-	.
8E-/	8AA\	.	.	.	.	.	8c/	8F\	-go-	.
=160	=160	=160	=160	=160	=160	=160	=160	=160	=160	=160
(>8D/L	(<8BB-\L	.	.	2ryy	.	.	4f/	(>8F\L	-sła-	.
8E-/J)	8C\J)	.	.	.	.	.	.	8A\J)	.	.
(>8F/L	(<8D\L	.	.	.	.	.	4B-/	4B-\	-wi,	.
8G/J)	8E-\J)	.	.	.	.	.	.	.	.	.
=161	=161	=161	=161	=161	=161	=161	=161	=161	=161	=161
8F/	8F\	.	.	2ryy	.	.	8F/	8F\	Oj-	.
8E-/	8C\	.	.	.	.	.	8A/	8F\	-czy-	.
8.F/	8.E-\	.	.	.	.	.	8.c/	8.A\	-znę	.
16E-/	16C\	.	.	.	.	.	16A/	16F\	nam	.
=162	=162	=162	=162	=162	=162	=162	=162	=162	=162	=162
8D/	4BB-\	zba-	.	2ryy	.	.	8B-/	8F\	zba-	.
4D/	.	-wi	.	.	.	.	4B-/	4F\	-wi.	.
.	(>8BB-\L	.	.	.	.	.	.	.	.	.
8rG	8AA\J)	.	.	.	.	.	8r	8ryy	.	.
=163	=163	=163	=163	=163	=163	=163	=163	=163	=163	=163
!	!	!	!LO:DY:a:rj	!	!	!	!	!	!	!LO:DY:b:rj
8D/	2AA-X\	Hej!	ff	2ryy	.	.	8B-/	8F\	Ki-	ff
8F/	.	.	.	.	.	.	8d/	8B-\	-liń-	.
4B-/	.	.	.	.	.	.	4f/	4d\	-ski	.
!!LO:LB:g=original
=164	=164	=164	=164	=164	=164	=164	=164	=164	=164	=164
8D/	2AA-X\	hej!	.	2ryy	.	.	8B-/	8F\	był	.
8F/	.	.	.	.	.	.	8d/	8B-\	sze-	.
4D/	.	.	.	.	.	.	4f/	4B-\	-wcem,	.
=165	=165	=165	=165	=165	=165	=165	=165	=165	=165	=165
8E-/	4GG\	wzbu-	.	2ryy	.	.	8e-/	8B-\	A	.
4B-/	.	.	.	.	.	.	4g/	4e-\	wzbu-	.
.	4AAn\	.	.	.	.	.	.	.	.	.
8c/	.	-rzył	.	.	.	.	8g/	8e-\	-rzył	.
=166	=166	=166	=166	=166	=166	=166	=166	=166	=166	=166
8.d/	8.BB-\	.	.	2ryy	.	.	8.f/	8.d\	on	.
16F/	16D\	.	.	.	.	.	16f/	16B-\	War-	.
8F/	8F\	.	.	.	.	.	8d/	8B-\	-sza-	.
8F/	8D\	.	.	.	.	.	8B-/	8B-\	-wę,	.
=167	=167	=167	=167	=167	=167	=167	=167	=167	=167	=167
8G/	8C\	.	.	2ryy	.	.	8e-/	8B-\	A	.
4B-/	4C\	.	.	.	.	.	4g/	4e-\	wzbu-	.
8A/	8C#X\	.	.	.	.	.	8g/	8en\	-rzył	.
=168	=168	=168	=168	=168	=168	=168	=168	=168	=168	=168
8.A/	8.D\	.	.	2ryy	.	.	8.f/	8.d\	on	.
16A/	16F\	.	.	.	.	.	16f/	16d\	War-	.
8B-/	8G\	.	.	.	.	.	8d/	8d\	-sza-	.
8G/	8D\	.	.	.	.	.	8B-/	8B-\	-wę,	.
!!LO:LB:g=original
=169	=169	=169	=169	=169	=169	=169	=169	=169	=169	=169
8G/	8E-\	.	.	2ryy	.	.	8c/	8A\	spra-	.
8G/	8C\	.	.	.	.	.	8e-/	8A\	-wił	.
8F#X/	8D\	.	.	.	.	.	8d/	8A\	on	.
8G/	8E-\	.	.	.	.	.	8c/	8c\	Mo-	.
=170	=170	=170	=170	=170	=170	=170	=170	=170	=170	=170
(<8Fn/L	4AA\	.	.	2ryy	.	.	4f/	4c\	-ska-	.
8E-/J)	.	.	.	.	.	.	.	.	.	.
4D/	4BB-\	.	.	.	.	.	4B-/	4B-\	-lom	.
=171	=171	=171	=171	=171	=171	=171	=171	=171	=171	=171
8C/	8AA\	.	.	2ryy	.	.	8F/	8F\	we-	.
8E-/	8C\	.	.	.	.	.	8A/	8F\	-se-	.
4F/	4E-\	.	.	.	.	.	4c/	4A\	-lis-	.
=172	=172	=172	=172	=172	=172	=172	=172	=172	=172	=172
8F/	8D\	.	.	2ryy	.	.	8B-/	8B-\	-ko	.
4En/	4C\	.	.	.	.	.	4d/	4B-\	krwa-	.
8E/	8C\	.	.	.	.	.	8d/	8B-\	-we,	.
=173	=173	=173	=173	=173	=173	=173	=173	=173	=173	=173
8F/	2FF\	spra-	.	2ryy	.	.	8c/	8A\	spra-	.
8G/	.	.	.	.	.	.	8e-/	8A\	-wił	.
8F/	.	.	.	.	.	.	8d/	8A\	on	.
8E-/	.	.	.	.	.	.	8c/	8A\	Mo-	.
!!LO:LB:g=original
=174	=174	=174	=174	=174	=174	=174	=174	=174	=174	=174
(>8D/L	(<8GG\L	-wił	.	2ryy	.	.	4f/	(>8B-\L	-ska-	.
8F/J)	8AA\J)	.	.	.	.	.	.	8c\J)	.	.
(>8D/L	(<8BB-\L	on	.	.	.	.	4B-/	4B-\	-lom	.
8F/J)	8D\J)	.	.	.	.	.	.	.	.	.
=175	=175	=175	=175	=175	=175	=175	=175	=175	=175	=175
8F/	4F\	spra-	.	2ryy	.	.	8F/	8F\	we-	.
8F/	.	.	.	.	.	.	8A/	8A\	-se-	.
8.E-/	4FF\	-wił	.	.	.	.	8.c/	8.A\	-li-	.
16E-/	.	.	.	.	.	.	16A/	16F\	-sko	.
=176	=176	=176	=176	=176	=176	=176	=176	=176	=176	=176
8D/	8BB-\	krwa-	.	2ryy	.	.	8B-/	8F\	krwa-	.
8D/	8BB-\	-we.	.	.	.	.	8B-/	8F\	-we.	.
4r	4ryy	.	.	.	.	.	8.rB	8.ryy	.	.
!	!	!	!	!	!	!	!	!	!	!LO:DY:b:rj
.	.	.	.	.	.	.	16B-/	16B-\	O	f
=177	=177	=177	=177	=177	=177	=177	=177	=177	=177	=177
8.r	8.ryy	.	f	2ryy	.	.	4.g/	4.e-\	tak!	.
!	!	!	!LO:DY:a:rj	!	!	!	!	!	!	!
16E-/	16E-\	O	f	.	.	.	.	.	.	.
4B-/	4B-\	tak!	.	.	.	.	.	.	.	.
.	.	.	.	.	.	.	16rB	16ryy	.	.
.	.	.	.	.	.	.	16e-/	16c\	o	.
=178	=178	=178	=178	=178	=178	=178	=178	=178	=178	=178
8.r	8.ryy	.	.	2ryy	.	.	2f/	2d\	tak!	.
16F/	16F\	o	.	.	.	.	.	.	.	.
4B-/	4B-\	tak!	.	.	.	.	.	.	.	.
!!LO:PB:g=original
=179	=179	=179	=179	=179	=179	=179	=179	=179	=179	=179
8.A/	8.F\	.	.	2ryy	.	.	8.f/	8.c\	Bóg	.
16F/	16E-\	.	.	.	.	.	16c/	16A\	po-	.
8F/	8D\	.	.	.	.	.	8d/	8A\	-bło-	.
8F/	8C\	.	.	.	.	.	8e-/	8A\	-go-	.
=180	=180	=180	=180	=180	=180	=180	=180	=180	=180	=180
(<8F/L	8BB-\	.	.	2ryy	.	.	8d/	8B-\	-sła-	.
8B-/J)	4.BB-\	.	.	.	.	.	4f/	4d\	-wi	.
4A-X/	.	.	.	.	.	.	.	.	.	.
.	.	.	.	.	.	.	16rB	16ryy	.	.
.	.	.	.	.	.	.	16f/	16d\	o	.
=181	=181	=181	=181	=181	=181	=181	=181	=181	=181	=181
8.r	8.ryy	.	.	2ryy	.	.	4.g/	4.e-\	tak!	.
16G/	16E-\	o	.	.	.	.	.	.	.	.
8B-/	8C\	tak!	.	.	.	.	.	.	.	.
16r	16r	.	.	.	.	.	16rB	16ryy	.	.
16An/	16C\	o	.	.	.	.	16g/	16e-\	o	.
=182	=182	=182	=182	=182	=182	=182	=182	=182	=182	=182
4.B-/	8D\	tak!	.	2ryy	.	.	4.f/	4.d\	tak!	.
.	16r	.	.	.	.	.	.	.	.	.
.	16F\	o	.	.	.	.	.	.	.	.
.	8B-\	tak!	.	.	.	.	.	.	.	.
8B-/	8F\	Oj-	.	.	.	.	8d/	8B-\	Oj-	.
!!LO:LB:g=original
=183	=183	=183	=183	=183	=183	=183	=183	=183	=183	=183
!LO:TX:a:Bi:t=molto ri_te_nu_to:dur=4q:ext=ud:problem:text with extention lines	!	!	!	!	!	!	!	!	!	!
!	!	!	!	!	!	!	!LO:TX:a:Bi:t=molto ri_te_nu_to:dur=4q:ext=ud:problem:text with extention lines	!	!	!
8A/	4F\	-czy-	.	2ryy	.	.	8f/	8c\	-czy-	.
4G/	.	.	.	.	.	.	4e-/	4B-\	-znę	.
.	4FF\	-znę	.	.	.	.	.	.	.	.
8E-/	.	.	.	.	.	.	8c/	8A\	nam	.
=184	=184	=184	=184	=184	=184	=184	=184	=184	=184	=184
8E-/	8BB-\	zba-	.	2ryy	.	.	8c/	8A\	zba-	.
4D/	4BB-\	-wi	.	.	.	.	4B-/	4B-\	-wi.	.
!	!	!	!LO:DY:b:rj	!	!	!	!	!	!	!LO:DY:b:rj
8F/	8F\	.	ff	.	.	.	8d/	8B-\	O	ff
=185||	=185||	=185||	=185||	=185||	=185||	=185||	=185||	=185||	=185||	=185||
!!!OMD: Piu lento e maestoso.
8B-/	8B-\	.	.	2ryy	.	.	4.f/	4.d\	tak!	.
16r	16r	.	.	.	.	.	.	.	.	.
16F/	16F\	o	.	.	.	.	.	.	.	.
8B-/	8B-\	tak!	.	.	.	.	.	.	.	.
8B-/	8B-\	o	.	.	.	.	8d/	8d\	o	.
=186	=186	=186	=186	=186	=186	=186	=186	=186	=186	=186
8B-/	8E-\	tak!	.	2ryy	.	.	4.g/	4.e-\	tak!	.
16r	16r	.	.	.	.	.	.	.	.	.
16B-/	16G\	o	.	.	.	.	.	.	.	.
8G/	8E-\	tak!	.	.	.	.	.	.	.	.
8B-/	8E-\	o	.	.	.	.	8g/	8e-\	O	.
!!LO:LB:g=original
=187	=187	=187	=187	=187	=187	=187	=187	=187	=187	=187
[>2d [>2B-/	[<2F [<2BB-\	.	.	2ryy	.	.	[>2b-/	[<2f [<2d\	tak!	.
=188	=188	=188	=188	=188	=188	=188	=188	=188	=188	=188
2d_> 2B-/_>	2F_< 2BB-\_<	.	.	2ryy	.	.	2b-/_>	2f_< 2d\_<	.	.
=189	=189	=189	=189	=189	=189	=189	=189	=189	=189	=189
8d] 8B-/]	8F] 8BB-\]	.	.	2ryy	.	.	8b-/]	8f] 8d\]	.	.
8r	8ryy	.	.	.	.	.	8rB	8ryy	.	.
4r	4ryy	.	.	.	.	.	4rB	4ryy	.	.
*	*	*	*	*	*	*	*v	*v	*	*
*v	*v	*	*	*	*	*	*	*	*
==	==	==	==	==	==	==	==	==
*-	*-	*-	*-	*-	*-	*-	*-	*-
!!title: @{OTL};
!!!RDF**kern: > = above
!!!RDF**kern: < = below
!!!RDF**dynam: > = "dim", fontstyle= "bold-italic"
!!!RDF**dynam: < = "cres", fontstyle= "bold-italic"
!!!RDF**kern: | = vertical stroke
!!!RDF**kern: N = linked
!!!RDF**kern: i = editorial accidental
!!!EED: Wojciech Jakubiak-Danek
!!!EST: 2021-07-04
!!!URL-scan: http://repozytorium.nifc.pl/skany/pl-wtm-nut--r138n
!!!ONB-nifc: UWAGA: bez podziału na części
!!!ENC: Anastazja Marusiak
!!!END: 2021-06-01
